!!!!SEGMENT: pl-cz--iii-564--001-005_raszek-waclaw--missa-pastoralis-d-et-resurrexit.krn
!!!cenid: 18xx:989
!!!COM: Raszek, Wacław
!!!COM-rismID: pe30020314
!!!CDT: <1848->1848
!!!CNT:
!!!OPR: Missa Pastoralis D
!!!OTL: Et resurrexit
!!!OMV: 005
!!!PDT:
!!!AGN: Sacred; Mass
!!!YEC: Copyright 2022 Narodowy Instytut Fryderyka Chopina (https://polishscores.org)
!!!YEM: License CC-BY-4.0 (https://creativecommons.org/licenses/by/4.0)
!!!SMS-siglum: PL-CZ
!!!SMS-shelfmark: III-564
!!!SMS-shelfwork: 001-005 M
!!!SMS-variant:
!!!SMS-altvar:
!!!NIFC-rismSourceID: 300001047
!!!NIFC-rismChildID: 300001047
!!!NIFC-islandoraID: pl-cz:39183
!!!URL-pdf-islandora: https://repozytorium.nifc.pl/islandora/object/pl-cz%3A39183/datastream/PDF/view
!!!URL-scan: https://polish.musicsources.pl/pl/lokalizacje/galeria/rekopisy/6952/1 @EN{Scan on Polish Music Sources Website} @PL{Skany w portalu Dziedzictwo Muzyki Polskiej w otwartym dostępie}
!!!IIIF:
!!!ONB-nifc: UWAGA: części Mszy: Kyrie, Gloria, Credo, Et incarnatus, Et resurrexit, Sanctus, Benedictus, Agnus Dei, Dona nobis
!!!AIN: 1 alto 1 bass 2 clars 1 clrno 2 cor 2 flt 2 oboe 1 organ 1 soprn 1 tenor 2 violn
!!!OMD:
!!!OMD-mod: Allegro
!!!key: D
**kern	**fba	**dynam	**kern	**dynam	**kern	**dynam	**kern	**text	**mod-text	**dynam	**mod-dynam	**kern	**kern	**text	**mod-text	**dynam	**mod-dynam	**kern	**text	**mod-text	**dynam	**mod-dynam	**kern	**kern	**dynam	**kern	**dynam	**kern	**dynam	**kern	**dynam	**kern	**dynam	**kern	**dynam
*group5	*	*	*group4	*	*group4	*	*group3	*	*	*	*	*group3	*group3	*	*	*	*	*group3	*	*	*	*	*group2	*group2	*	*group2	*	*group1	*	*group1	*	*group1	*	*group1	*
*part14	*	*	*part13	*	*part12	*	*part11	*	*	*	*	*part10	*part9	*	*	*	*	*part8	*	*	*	*	*part7	*part6	*	*part5	*	*part4	*	*part3	*	*part2	*	*part1	*
*staff14	*	*	*staff13	*	*staff12	*	*staff11	*	*	*	*	*staff10	*staff9	*	*	*	*	*staff8	*	*	*	*	*staff7	*staff6	*	*staff5	*	*staff4	*	*staff3	*	*staff2	*	*staff1	*
*I"Organo.	*	*	*I"Violino 2do.	*	*I"Violino Primo.	*	*I"Baſso.	*	*	*	*	*I"[Tenore]	*I"Alto.	*	*	*	*	*I"Canto.	*	*	*	*	*I"[Clarino]	*I"Cornu 2.do	*	*I"Cornu 1.mo	*	*I"Clarinetto vel Oboe 2do	*	*I"Clarinetto vel Oboe 1mo	*	*I"Flauto 2.do	*	*I"Flauto 1.mo	*
*mI"Organo	*	*	*mI"Violino II	*	*mI"Violino I	*	*mI"Basso	*	*	*	*	*mI"Tenore	*mI"Alto	*	*	*	*	*mI"Soprano	*	*	*	*	*mI"Clarino	*mI"Corno II in D	*	*mI"Corno I in D	*	*mI"Clarinetto vel Oboe II	*	*mI"Clarinetto vel Oboe I	*	*mI"Flauto II	*	*mI"Flauto I	*
*I'org	*	*	*I'vl II	*	*I'vl I	*	*I'B	*	*	*	*	*I'T	*I'A	*	*	*	*	*I'S	*	*	*	*	*I'clno	*I'cor II in D	*	*I'cor I in D	*	*I'cl vel ob II	*	*I'cl vel ob I	*	*I'fl II	*	*I'fl I	*
*Iorgan	*	*	*Ivioln	*	*Ivioln	*	*Ibass	*	*	*	*	*Itenor	*Ialto	*	*	*	*	*Isoprn	*	*	*	*	*Iclrno	*Icor	*	*Icor	*	*Iclars|Ioboe	*	*Iclars|Ioboe	*	*Iflt	*	*Iflt	*
*ICklav	*	*	*ICstr	*	*ICstr	*	*ICvox	*	*	*	*	*ICvox	*ICvox	*	*	*	*	*ICvox	*	*	*	*	*ICbras	*ICbras	*	*ICbras	*	*ICww	*	*ICww	*	*ICww	*	*ICww	*
*IGcont	*	*	*	*	*	*	*	*	*	*	*	*	*	*	*	*	*	*	*	*	*	*	*	*	*	*	*	*	*	*	*	*	*	*	*
*clefF4	*	*	*clefG2	*	*clefG2	*	*clefF4	*	*	*	*	*clefC4	*clefC3	*	*	*	*	*clefC1	*	*	*	*	*clefG2	*clefG2	*	*clefG2	*	*clefG2	*	*clefG2	*	*clefG2	*	*clefG2	*
*	*	*	*	*	*	*	*	*	*	*	*	*mclefGv2	*mclefG2	*	*	*	*	*mclefG2	*	*	*	*	*	*	*	*	*	*	*	*	*	*	*	*	*
*	*	*	*	*	*	*	*	*	*	*	*	*	*	*	*	*	*	*	*	*	*	*	*	*ITrd-1c-2	*	*ITrd-1c-2	*	*	*	*	*	*	*	*	*
*k[f#c#]	*	*	*k[f#c#]	*	*k[f#c#]	*	*k[f#c#]	*	*	*	*	*k[f#c#]	*k[f#c#]	*	*	*	*	*k[f#c#]	*	*	*	*	*k[f#c#]	*k[f#c#]	*	*k[f#c#]	*	*k[f#c#]	*	*k[f#c#]	*	*k[f#c#]	*	*k[f#c#]	*
*D:	*	*	*D:	*	*D:	*	*D:	*	*	*	*	*D:	*D:	*	*	*	*	*D:	*	*	*	*	*D:	*D:	*	*D:	*	*D:	*	*D:	*	*D:	*	*D:	*
*M4/4	*	*	*M4/4	*	*M4/4	*	*M4/4	*	*	*	*	*M4/4	*M4/4	*	*	*	*	*M4/4	*	*	*	*	*M4/4	*M4/4	*	*M4/4	*	*M4/4	*	*M4/4	*	*M4/4	*	*M4/4	*
*met(c)	*	*	*met(c)	*	*met(c)	*	*met(c)	*	*	*	*	*met(c)	*met(c)	*	*	*	*	*met(c)	*	*	*	*	*met(c)	*met(c)	*	*met(c)	*	*met(c)	*	*met(c)	*	*met(c)	*	*met(c)	*
*mmet(c)	*	*	*mmet(c)	*	*mmet(c)	*	*mmet(c)	*	*	*	*	*mmet(c)	*mmet(c)	*	*	*	*	*mmet(c)	*	*	*	*	*mmet(c)	*mmet(c)	*	*mmet(c)	*	*mmet(c)	*	*mmet(c)	*	*mmet(c)	*	*mmet(c)	*
=1	=1	=1	=1	=1	=1	=1	=1	=1	=1	=1	=1	=1	=1	=1	=1	=1	=1	=1	=1	=1	=1	=1	=1	=1	=1	=1	=1	=1	=1	=1	=1	=1	=1	=1	=1
*2\right	*	*	*	*	*	*	*2\right	*	*	*	*	*	*2\right	*	*	*	*	*	*	*	*	*	*	*	*	*2\right	*	*	*	*	*	*2\right	*	*2\right	*
!!LO:TX:a:t=P:problem:all\right:global
!!LO:TX:a:t=P:problem:metrum C.:global
!!LO:TX:a:t= :mod=Tutti
!	!	!	!	!	!	!	!	!	!	!	!	!	!	!	!	!	!	!	!	!	!	!	!	!	!	!	!	!	!LO:MO:null:mod=!LO&colon;DY&colon;ed=brack	!	!LO:MO:null:mod=!LO&colon;DY&colon;ed=brack	!	!	!	!
!LO:TX:a:t=Allo:mod=	!	!	!	!	!	!	!	!	!	!	!	!	!	!	!	!	!	!LO:TX:t=P:problem:w źródle przy kluczu cc# zamiast c#	!	!	!	!	!	!	!	!	!	!	!	!	!	!	!	!	!LO:DY:a:t=f.
!LO:TX:a:t=Tutti:mod=	!	!LO:DY:a:t=ffor&colon;	!LO:TX:a:t=Allo:mod=	!LO:DY:a:t=ffor.	!LO:TX:a:t=Allo:mod=	!LO:DY:a:t=ffor&colon;	!LO:TX:a:t=Allo:mod=	!	!	!	!LO:DY:ed=brack	!LO:TX:t=P:problem:zgodnie z RISM:T, clno missing	!LO:TX:a:t=Allo:mod=	!	!	!	!LO:DY:ed=brack	!LO:TX:a:t=Allo:mod=	!	!	!LO:DY:a:t=ff&colon;	!LO:DY:a:t=ff&colon;	!LO:TX:t=P:problem:zgodnie z RISM:T, clno missing	!LO:TX:t=Allo:mod=	!LO:DY:a:t=ffor&colon;	!LO:TX:a:t=Allo:mod=	!LO:DY:a:t=ffor&colon;	!LO:TX:t=P::problem=niekompletne źródło&colon; brak klucza, znaków	!LO:MO:null:mod=ff	!	!LO:MO:null:mod=ff	!LO:TX:a:t=Allo:mod=	!LO:DY:a:t=ff.	!LO:TX:a:t=Allo:mod=	!LO:MO:mod=ff
2D|\	.	ff	2d/	ff	2d/	ff	2D\	Et	Et	.	ff	1ryy	2d\	Et	Et	.	ff	2d/	Et	Et	ff	ff	1ryy	2d/	ff	2dd\	ff	2d/	.	2d/	.	2dd\	ff	2dd\	f
4F#|\	.	.	4f#/	.	4f#/	.	4F#\	Re-	re-	.	.	.	4f#\	re-	re-	.	.	4f#/	re-	re-	.	.	.	4f#/	.	4ff#\	.	4f#/	.	4f#/	.	4ff#\	.	4ff#\	.
4A|\	.	.	4a/	.	4a/	.	4A\	-ſur-	-sur-	.	.	.	4a\	-ſur-	-sur-	.	.	4a\	-ſur-	-sur-	.	.	.	4a/	.	4aa\	.	4a/	.	4a/	.	4aa\	.	4aa\	.
=2	=2	=2	=2	=2	=2	=2	=2	=2	=2	=2	=2	=2	=2	=2	=2	=2	=2	=2	=2	=2	=2	=2	=2	=2	=2	=2	=2	=2	=2	=2	=2	=2	=2	=2	=2
4D|\	.	.	4d/	.	4dd\	.	(4D\	-re-	-re-	.	.	1ryy	(4d\	-re-	-re-	.	.	(4dd\	-re-	-re-	.	.	1ryy	4d/	.	4dd\	.	4d/	.	4dd\	.	4dd\	.	4ddd\	.
4F#|\	.	.	4f#/	.	4ff#\	.	4F#\)	.	.	.	.	.	4f#\)	.	.	.	.	4ff#\)	.	.	.	.	.	4f#/	.	4ff#\	.	4f#/	.	4ff#\	.	4ff#\	.	4fff#\	.
4A|\	.	.	8a/L	.	8aa\L	.	4A\	-xit	-xit	.	.	.	4a\	-xit	-xit	.	.	4aa\	-xit	-xit	.	.	.	4a/	.	4aa\	.	4a/	.	4aa\	.	4aa\	.	4aa\	.
.	.	.	8a/	.	8aa\	.	.	.	.	.	.	.	.	.	.	.	.	.	.	.	.	.	.	.	.	.	.	.	.	.	.	.	.	.	.
4r	.	.	8f#/	.	8ff#\	.	4r	.	.	.	.	.	4r	.	.	.	.	4r	.	.	.	.	.	4r	.	4r	.	4r	.	4r	.	4r	.	4r	.
.	.	.	8d/J	.	8dd\J	.	.	.	.	.	.	.	.	.	.	.	.	.	.	.	.	.	.	.	.	.	.	.	.	.	.	.	.	.	.
=3	=3	=3	=3	=3	=3	=3	=3	=3	=3	=3	=3	=3	=3	=3	=3	=3	=3	=3	=3	=3	=3	=3	=3	=3	=3	=3	=3	=3	=3	=3	=3	=3	=3	=3	=3
4r	.	.	4B/	.	4b\	.	4r	.	.	.	.	1ryy	4r	.	.	.	.	4r	.	.	.	.	1ryy	4r	.	4r	.	4r	.	4r	.	4r	.	4r	.
.	.	.	.	.	8qaa/	.	.	.	.	.	.	.	.	.	.	.	.	.	.	.	.	.	.	.	.	.	.	.	.	.	.	.	.	.	.
4G\	.	.	4b/	.	8gg\L	.	4G\	ter-	ter-	.	.	.	4b\	ter-	ter-	.	.	4gg\	ter-	ter-	.	.	.	4ee\	.	4gg\	.	4gg\	.	4bb\	.	4bb\	.	4bb\	.
.	.	.	.	.	16ff#\L	.	.	.	.	.	.	.	.	.	.	.	.	.	.	.	.	.	.	.	.	.	.	.	.	.	.	.	.	.	.
.	.	.	.	.	16gg\JJ	.	.	.	.	.	.	.	.	.	.	.	.	.	.	.	.	.	.	.	.	.	.	.	.	.	.	.	.	.	.
4A\	6 4	.	8a/L	.	8ff#\L	.	4A\	-ti-	-ti-	.	.	.	8a\L	-ti-	-ti-	.	.	8ff#\L	-ti-	-ti-	.	.	.	8ff#\L	.	8aa\L	.	8ff#\L	.	8aa\L	.	8aa\L	.	8aa\L	.
.	.	.	8g/	.	8ee\	.	.	.	.	.	.	.	8g\J	.	.	.	.	8ee\J	.	.	.	.	.	8ee\	.	8gg\	.	8ee\	.	8gg\	.	8gg\	.	8eee\	.
!LO:TX:t=P:problem=nieczytelne bc	!	!	!	!	!	!	!	!	!	!	!	!	!	!	!	!	!	!	!	!	!	!	!	!	!	!	!	!	!	!	!	!	!	!	!
4AA/	4	.	8f#/	.	8dd\	.	4AA/	-a	-a	.	.	.	8f#\L	-a	-a	.	.	8dd\L	-a	-a	.	.	.	8dd\	.	8ff#\	.	8dd\	.	8ff#\	.	8ff#\	.	8ddd\	.
.	.	.	8e/J	.	8cc#\J	.	.	.	.	.	.	.	8e\J	.	.	.	.	8cc#\J	.	.	.	.	.	8a\J	.	8ee\J	.	8cc#\J	.	8ee\J	.	8ee\J	.	8ccc#\J	.
=4	=4	=4	=4	=4	=4	=4	=4	=4	=4	=4	=4	=4	=4	=4	=4	=4	=4	=4	=4	=4	=4	=4	=4	=4	=4	=4	=4	=4	=4	=4	=4	=4	=4	=4	=4
!	!	!	!	!	!	!	!	!	!	!	!	!	!LO:SIC:s=(4d\	!	!	!	!	!LO:SIC:s=(4dd\	!	!	!	!	!	!	!	!	!	!	!	!	!	!	!	!	!
4D\	.	.	4d/	.	4dd\	.	(4D\	di-	di-	.	.	1ryy	4d\	di-	di-	.	.	4dd\	di-	di-	.	.	1ryy	4d/	.	4dd\	.	4dd\	.	4dd\	.	4dd\	.	4ddd\	.
!	!	!	!	!	!	!	!	!	!	!	!	!	!LO:SIC:s=4f#\)	!	!	!	!	!LO:SIC:s=4ff#\)	!	!	!	!	!	!	!	!	!	!	!	!	!	!	!	!	!
4F#|\	.	.	16f#/LL	.	16ff#\LL	.	4F#\)	.	.	.	.	.	4f#\	.	.	.	.	4ff#\	.	.	.	.	.	4f#/	.	4ff#\	.	4f#/	.	4ff#\	.	4ff#\	.	4fff#\	.
.	.	.	16e/	.	16ee\	.	.	.	.	.	.	.	.	.	.	.	.	.	.	.	.	.	.	.	.	.	.	.	.	.	.	.	.	.	.
.	.	.	16f#/	.	16ff#\	.	.	.	.	.	.	.	.	.	.	.	.	.	.	.	.	.	.	.	.	.	.	.	.	.	.	.	.	.	.
.	.	.	16g/JJ	.	16gg\JJ	.	.	.	.	.	.	.	.	.	.	.	.	.	.	.	.	.	.	.	.	.	.	.	.	.	.	.	.	.	.
4A|\	.	.	8a/L	.	8aa\L	.	4A\	-e	-e,	.	.	.	4a\	-e	-e,	.	.	4aa\	-e	-e,	.	.	.	4a/	.	4aa\	.	4a/	.	4aa\	.	4aa\	.	4aa\	.
.	.	.	8a/	.	8aa\	.	.	.	.	.	.	.	.	.	.	.	.	.	.	.	.	.	.	.	.	.	.	.	.	.	.	.	.	.	.
4r	.	.	8f#/	.	8ff#\	.	4r	.	.	.	.	.	4r	.	.	.	.	4r	.	.	.	.	.	4r	.	4r	.	4r	.	4r	.	4r	.	4r	.
.	.	.	8d/J	.	8dd\J	.	.	.	.	.	.	.	.	.	.	.	.	.	.	.	.	.	.	.	.	.	.	.	.	.	.	.	.	.	.
=5	=5	=5	=5	=5	=5	=5	=5	=5	=5	=5	=5	=5	=5	=5	=5	=5	=5	=5	=5	=5	=5	=5	=5	=5	=5	=5	=5	=5	=5	=5	=5	=5	=5	=5	=5
4r	.	.	4B/	.	4b\	.	4r	.	.	.	.	1ryy	4r	.	.	.	.	4r	.	.	.	.	1ryy	4r	.	4r	.	4r	.	4r	.	4r	.	4r	.
4G\	3	.	4b/	.	16aa\LL	.	4G\	Se-	se-	.	.	.	4b\	Se-	se-	.	.	4gg\	Se-	se-	.	.	.	4ee\	.	4gg\	.	4gg\	.	4bb\	.	4bb\	.	4bb\	.
.	.	.	.	.	16gg\	.	.	.	.	.	.	.	.	.	.	.	.	.	.	.	.	.	.	.	.	.	.	.	.	.	.	.	.	.	.
.	.	.	.	.	16ff#\	.	.	.	.	.	.	.	.	.	.	.	.	.	.	.	.	.	.	.	.	.	.	.	.	.	.	.	.	.	.
.	.	.	.	.	16gg\JJ	.	.	.	.	.	.	.	.	.	.	.	.	.	.	.	.	.	.	.	.	.	.	.	.	.	.	.	.	.	.
4A\	4	.	8a/L	.	8ff#\L	.	4A\	-cun-	-cun-	.	.	.	8a\L	-cun-	-cun-	.	.	8ff#\L	-cun-	-cun-	.	.	.	4dd\	.	4ff#\	.	8ff#\L	.	8aa\L	.	8aa\L	.	8aa\L	.
.	.	.	8g/	.	8ee\	.	.	.	.	.	.	.	8g\J	.	.	.	.	8ee\J	.	.	.	.	.	.	.	.	.	8ee\	.	8gg\	.	8gg\	.	8eee\	.
4AA/	#	.	8f#/	.	8dd\	.	8A\	-dum	-dum	.	.	.	8f#\	-dum	-dum	.	.	8dd\	-dum	-dum	.	.	.	4a/	.	4ee\	.	8dd\	.	8ff#\	.	8ff#\	.	8ddd\	.
.	.	.	8e/J	.	8cc#\J	.	8A\	ſcri-	Scri-	.	.	.	8e\	Scri-	Scri-	.	.	8cc#\	ſcri-	Scri-	.	.	.	.	.	.	.	8cc#\J	.	8ee\J	.	8ee\J	.	8ccc#\J	.
!	!	!	!	!	!	!	!	!	!	!	!	!	!LO:LB:g=original	!	!	!	!	!	!	!	!	!	!	!	!	!	!	!	!	!	!	!	!	!	!
=6	=6	=6	=6	=6	=6	=6	=6	=6	=6	=6	=6	=6	=6	=6	=6	=6	=6	=6	=6	=6	=6	=6	=6	=6	=6	=6	=6	=6	=6	=6	=6	=6	=6	=6	=6
*	*	*	*^	*	*	*	*	*	*	*	*	*	*	*	*	*	*	*	*	*	*	*	*	*	*	*	*	*	*	*	*	*	*	*	*
*	*	*	*2\right	*	*	*	*	*	*	*	*	*	*	*	*	*	*	*	*	*	*	*	*	*	*	*	*	*	*	*	*2\right	*	*	*	*	*
*tremolo	*	*	*tremolo	*	*	*	*	*	*	*	*	*	*	*	*	*	*	*	*	*	*	*	*	*	*	*	*	*	*	*	*	*	*	*	*	*
8D\L	.	.	16a/LL	16f#\LL	.	8dd\L	.	4D\	-ptu-	-ptu-	.	.	1ryy	4f#\	-ptu-	-ptu-	.	.	4dd\	-ptu-	-ptu-	.	.	1ryy	4dd\	.	4ff#\	.	1dd	.	2dd\	.	1ff#	.	1ddd	.
.	.	.	16a/	16f#\	.	.	.	.	.	.	.	.	.	.	.	.	.	.	.	.	.	.	.	.	.	.	.	.	.	.	.	.	.	.	.	.
8D\	.	.	16a/	16f#\	.	8ff#\J	.	.	.	.	.	.	.	.	.	.	.	.	.	.	.	.	.	.	.	.	.	.	.	.	.	.	.	.	.	.
.	.	.	16a/	16f#\	.	.	.	.	.	.	.	.	.	.	.	.	.	.	.	.	.	.	.	.	.	.	.	.	.	.	.	.	.	.	.	.
8D\	.	.	16a/	16f#\	.	4.aa\	.	4D\	-raſ	-ras.	.	.	.	4f#\	-raſ	-ras.	.	.	4dd\	-raſ	-ras.	.	.	.	8dd\L	.	8ff#\L	.	.	.	.	.	.	.	.	.
.	.	.	16a/	16f#\	.	.	.	.	.	.	.	.	.	.	.	.	.	.	.	.	.	.	.	.	.	.	.	.	.	.	.	.	.	.	.	.
8D\J	.	.	16a/	16f#\	.	.	.	.	.	.	.	.	.	.	.	.	.	.	.	.	.	.	.	.	8dd\J	.	8ff#\J	.	.	.	.	.	.	.	.	.
.	.	.	16a/JJ	16f#\JJ	.	.	.	.	.	.	.	.	.	.	.	.	.	.	.	.	.	.	.	.	.	.	.	.	.	.	.	.	.	.	.	.
!	!	!	!	!	!	!	!	!	!	!	!	!	!	!LO:TX:t=P:tekst:problem= at poprawione na et	!	!	!	!	!	!	!	!	!	!	!	!	!	!	!	!	!	!	!	!	!	!
8D\L	.	.	16a/LL	16f#\LL	.	.	.	4D\	et	Et	.	.	.	4f#\	et	Et	.	.	4dd\	et	Et	.	.	.	4dd\	.	4ff#\	.	.	.	2ff#\	.	.	.	.	.
.	.	.	16a/	16f#\	.	.	.	.	.	.	.	.	.	.	.	.	.	.	.	.	.	.	.	.	.	.	.	.	.	.	.	.	.	.	.	.
8D\	.	.	16a/	16f#\	.	16bb\LL	.	.	.	.	.	.	.	.	.	.	.	.	.	.	.	.	.	.	.	.	.	.	.	.	.	.	.	.	.	.
.	.	.	16a/	16f#\	.	16aa\JJ	.	.	.	.	.	.	.	.	.	.	.	.	.	.	.	.	.	.	.	.	.	.	.	.	.	.	.	.	.	.
8D\	.	.	16a/	16f#\	.	16gg\LL	.	4D\	aſ-	as-	.	.	.	4f#\	aſ-	as-	.	.	4dd\	aſ-	as-	.	.	.	4dd\	.	4ff#\	.	.	.	.	.	.	.	.	.
.	.	.	16a/	16f#\	.	16ff#\	.	.	.	.	.	.	.	.	.	.	.	.	.	.	.	.	.	.	.	.	.	.	.	.	.	.	.	.	.	.
8D\J	.	.	16a/	16f#\	.	16ee\	.	.	.	.	.	.	.	.	.	.	.	.	.	.	.	.	.	.	.	.	.	.	.	.	.	.	.	.	.	.
.	.	.	16a/JJ	16f#\JJ	.	16dd\JJ	.	.	.	.	.	.	.	.	.	.	.	.	.	.	.	.	.	.	.	.	.	.	.	.	.	.	.	.	.	.
*	*	*	*	*	*	*custos:a	*	*	*	*	*	*	*	*	*	*	*	*	*	*	*	*	*	*	*	*	*	*	*	*	*	*	*	*	*	*
!	!	!	!	!	!	!LO:LB:g=original	!	!	!	!	!	!	!	!	!	!	!	!	!	!	!	!	!	!	!	!	!	!	!	!	!	!	!	!	!	!
=7	=7	=7	=7	=7	=7	=7	=7	=7	=7	=7	=7	=7	=7	=7	=7	=7	=7	=7	=7	=7	=7	=7	=7	=7	=7	=7	=7	=7	=7	=7	=7	=7	=7	=7	=7	=7
8C#/L	6	.	16a/LL	16e\LL	.	8a\L	.	4C#/	-cen-	-cen-	.	.	1ryy	4g\	-cen-	-cen-	.	.	4ee\	-cen-	-cen-	.	.	1ryy	4a/	.	4ee\	.	1a	.	1ee	.	1gg	.	1eee	.
.	.	.	16a/	16e\	.	.	.	.	.	.	.	.	.	.	.	.	.	.	.	.	.	.	.	.	.	.	.	.	.	.	.	.	.	.	.	.
8C#/	.	.	16a/	16e\	.	8cc#\J	.	.	.	.	.	.	.	.	.	.	.	.	.	.	.	.	.	.	.	.	.	.	.	.	.	.	.	.	.	.
.	.	.	16a/	16e\	.	.	.	.	.	.	.	.	.	.	.	.	.	.	.	.	.	.	.	.	.	.	.	.	.	.	.	.	.	.	.	.
8C#/	.	.	16a/	16e\	.	4.ee\	.	8C#/	-dit	-dit	.	.	.	8g\	-dit	-dit	.	.	8ee\	-dit	-dit	.	.	.	8a/L	.	8ee\L	.	.	.	.	.	.	.	.	.
.	.	.	16a/	16e\	.	.	.	.	.	.	.	.	.	.	.	.	.	.	.	.	.	.	.	.	.	.	.	.	.	.	.	.	.	.	.	.
8C#/J	.	.	16a/	16e\	.	.	.	8C#/	in	in	.	.	.	8g\	in	in	.	.	8ee\	in	in	.	.	.	8a/J	.	8ee\J	.	.	.	.	.	.	.	.	.
.	.	.	16a/JJ	16e\JJ	.	.	.	.	.	.	.	.	.	.	.	.	.	.	.	.	.	.	.	.	.	.	.	.	.	.	.	.	.	.	.	.
*	*	*	*	*	*	*	*	*	*	*	*	*	*	*	*	*	*	*	*	*	*	*	*	*	*custos:g	*	*	*	*	*	*	*	*	*	*	*
!	!	!	!	!	!	!	!	!	!	!	!	!	!	!	!	!	!	!	!	!	!	!	!	!	!LO:LB:g=original	!	!	!	!	!	!	!	!	!	!	!
8C#/L	.	.	16a/LL	16e\LL	.	.	.	4C#/	Cae-	cae-	.	.	.	4g\	Cae-	cae-	.	.	4ee\	Cae-	cae-	.	.	.	4a/	.	4ee\	.	.	.	.	.	.	.	.	.
.	.	.	16a/	16e\	.	.	.	.	.	.	.	.	.	.	.	.	.	.	.	.	.	.	.	.	.	.	.	.	.	.	.	.	.	.	.	.
8C#/	.	.	16a/	16e\	.	16ff#\LL	.	.	.	.	.	.	.	.	.	.	.	.	.	.	.	.	.	.	.	.	.	.	.	.	.	.	.	.	.	.
.	.	.	16a/	16e\	.	16ee\JJ	.	.	.	.	.	.	.	.	.	.	.	.	.	.	.	.	.	.	.	.	.	.	.	.	.	.	.	.	.	.
8C#/	.	.	16a/	16e\	.	16dd\LL	.	4C#/	-lum	-lum:	.	.	.	4g\	-lum	-lum:	.	.	4ee\	-lum	-lum:	.	.	.	4a/	.	4ee\	.	.	.	.	.	.	.	.	.
.	.	.	16a/	16e\	.	16cc#\	.	.	.	.	.	.	.	.	.	.	.	.	.	.	.	.	.	.	.	.	.	.	.	.	.	.	.	.	.	.
8C#/J	.	.	16a/	16e\	.	16b\	.	.	.	.	.	.	.	.	.	.	.	.	.	.	.	.	.	.	.	.	.	.	.	.	.	.	.	.	.	.
.	.	.	16a/JJ	16e\JJ	.	16a\JJ	.	.	.	.	.	.	.	.	.	.	.	.	.	.	.	.	.	.	.	.	.	.	.	.	.	.	.	.	.	.
*	*	*	*v	*v	*	*	*	*	*	*	*	*	*	*	*	*	*	*	*	*	*	*	*	*	*	*	*	*	*	*	*	*	*	*	*	*
!	!	!	!	!	!	!	!LO:LB:g=original	!	!	!	!	!	!	!	!	!	!	!	!	!	!	!	!	!	!	!LO:LB:g=original	!	!	!	!	!	!	!	!	!
=8	=8	=8	=8	=8	=8	=8	=8	=8	=8	=8	=8	=8	=8	=8	=8	=8	=8	=8	=8	=8	=8	=8	=8	=8	=8	=8	=8	=8	=8	=8	=8	=8	=8	=8	=8
*	*	*	*	*	*	*	*	*	*	*	*	*	*	*	*	*	*	*2\right	*	*	*	*	*	*	*	*	*	*	*	*	*	*	*	*	*
8D/L	.	.	16a 16f#LL	.	8dd\L	.	2D\	Se-	se-	.	.	1ryy	2f#\	ſe-	se-	.	.	2dd\	ſe-	se-	.	.	1ryy	4dd\	.	4ff#\	.	1a	.	1ff#	.	1ff#	.	1ddd	.
.	.	.	16a 16f#	.	.	.	.	.	.	.	.	.	.	.	.	.	.	.	.	.	.	.	.	.	.	.	.	.	.	.	.	.	.	.	.
8D/	.	.	16a 16f#	.	8ff#\J	.	.	.	.	.	.	.	.	.	.	.	.	.	.	.	.	.	.	.	.	.	.	.	.	.	.	.	.	.	.
.	.	.	16a 16f#	.	.	.	.	.	.	.	.	.	.	.	.	.	.	.	.	.	.	.	.	.	.	.	.	.	.	.	.	.	.	.	.
8D/	.	.	16a 16f#	.	4.aa\	.	.	.	.	.	.	.	.	.	.	.	.	.	.	.	.	.	.	8dd\L	.	8ff#\L	.	.	.	.	.	.	.	.	.
.	.	.	16a 16f#	.	.	.	.	.	.	.	.	.	.	.	.	.	.	.	.	.	.	.	.	.	.	.	.	.	.	.	.	.	.	.	.
8D/J	.	.	16a 16f#	.	.	.	.	.	.	.	.	.	.	.	.	.	.	.	.	.	.	.	.	8dd\J	.	8ff#\J	.	.	.	.	.	.	.	.	.
.	.	.	16a 16f#	.	.	.	.	.	.	.	.	.	.	.	.	.	.	.	.	.	.	.	.	.	.	.	.	.	.	.	.	.	.	.	.
8D/L	.	.	16a 16f#	.	.	.	4D\	-det	-det	.	.	.	4f#\	-det	-det	.	.	4dd\	-det	-det	.	.	.	4dd\	.	4ff#\	.	.	.	.	.	.	.	.	.
.	.	.	16a 16f#	.	.	.	.	.	.	.	.	.	.	.	.	.	.	.	.	.	.	.	.	.	.	.	.	.	.	.	.	.	.	.	.
8D/	.	.	16a 16f#	.	16bb\LL	.	.	.	.	.	.	.	.	.	.	.	.	.	.	.	.	.	.	.	.	.	.	.	.	.	.	.	.	.	.
.	.	.	16a 16f#	.	16aa\JJ	.	.	.	.	.	.	.	.	.	.	.	.	.	.	.	.	.	.	.	.	.	.	.	.	.	.	.	.	.	.
8D/	.	.	16a 16f#	.	16gg\LL	.	4D\	ad	ad	.	.	.	4f#\	ad	ad	.	.	4dd\	ad	ad	.	.	.	4dd\	.	4ff#\	.	.	.	.	.	.	.	.	.
.	.	.	16a 16f#	.	16ff#\	.	.	.	.	.	.	.	.	.	.	.	.	.	.	.	.	.	.	.	.	.	.	.	.	.	.	.	.	.	.
8D/J	.	.	16a 16f#	.	16ee\	.	.	.	.	.	.	.	.	.	.	.	.	.	.	.	.	.	.	.	.	.	.	.	.	.	.	.	.	.	.
.	.	.	16a 16f#JJ	.	16dd\JJ	.	.	.	.	.	.	.	.	.	.	.	.	.	.	.	.	.	.	.	.	.	.	.	.	.	.	.	.	.	.
!	!	!	!	!	!	!	!	!	!	!	!	!	!	!	!	!	!	!LO:LB:g=original	!	!	!	!	!	!	!	!	!	!	!	!	!	!LO:LB:g=original	!	!	!
=9	=9	=9	=9	=9	=9	=9	=9	=9	=9	=9	=9	=9	=9	=9	=9	=9	=9	=9	=9	=9	=9	=9	=9	=9	=9	=9	=9	=9	=9	=9	=9	=9	=9	=9	=9
8C#/L	6	.	16a 16eLL	.	8a\L	.	2C#/	dex-	dex-	.	.	1ryy	2g\	dex-	dex-	.	.	2ee\	dex-	dex-	.	.	1ryy	4a/	.	4ee\	.	1a	.	1ee	.	1gg	.	1eee	.
.	.	.	16a 16e	.	.	.	.	.	.	.	.	.	.	.	.	.	.	.	.	.	.	.	.	.	.	.	.	.	.	.	.	.	.	.	.
8C#/	.	.	16a 16e	.	8cc#\J	.	.	.	.	.	.	.	.	.	.	.	.	.	.	.	.	.	.	.	.	.	.	.	.	.	.	.	.	.	.
.	.	.	16a 16e	.	.	.	.	.	.	.	.	.	.	.	.	.	.	.	.	.	.	.	.	.	.	.	.	.	.	.	.	.	.	.	.
8C#/	.	.	16a 16e	.	4.ee\	.	.	.	.	.	.	.	.	.	.	.	.	.	.	.	.	.	.	8a/L	.	8ee\L	.	.	.	.	.	.	.	.	.
.	.	.	16a 16e	.	.	.	.	.	.	.	.	.	.	.	.	.	.	.	.	.	.	.	.	.	.	.	.	.	.	.	.	.	.	.	.
8C#/J	.	.	16a 16e	.	.	.	.	.	.	.	.	.	.	.	.	.	.	.	.	.	.	.	.	8a/J	.	8ee\J	.	.	.	.	.	.	.	.	.
.	.	.	16a 16e	.	.	.	.	.	.	.	.	.	.	.	.	.	.	.	.	.	.	.	.	.	.	.	.	.	.	.	.	.	.	.	.
8C#/L	.	.	16a 16e	.	.	.	4C#/	-te-	-te-	.	.	.	4g\	-te-	-te-	.	.	4ee\	-te-	-te-	.	.	.	4a/	.	4ee\	.	.	.	.	.	.	.	.	.
.	.	.	16a 16e	.	.	.	.	.	.	.	.	.	.	.	.	.	.	.	.	.	.	.	.	.	.	.	.	.	.	.	.	.	.	.	.
8C#/	.	.	16a 16e	.	16ff#\LL	.	.	.	.	.	.	.	.	.	.	.	.	.	.	.	.	.	.	.	.	.	.	.	.	.	.	.	.	.	.
.	.	.	16a 16e	.	16ee\JJ	.	.	.	.	.	.	.	.	.	.	.	.	.	.	.	.	.	.	.	.	.	.	.	.	.	.	.	.	.	.
8C#/	.	.	16a 16e	.	16dd\LL	.	4C#/	-ram	-ram,	.	.	.	4g\	-tam	-tam,	.	.	4ee\	-ram	-ram,	.	.	.	4a/	.	4ee\	.	.	.	.	.	.	.	.	.
.	.	.	16a 16e	.	16cc#\	.	.	.	.	.	.	.	.	.	.	.	.	.	.	.	.	.	.	.	.	.	.	.	.	.	.	.	.	.	.
8C#/J	.	.	16a 16e	.	16b\	.	.	.	.	.	.	.	.	.	.	.	.	.	.	.	.	.	.	.	.	.	.	.	.	.	.	.	.	.	.
.	.	.	16a 16eJJ	.	16a\JJ	.	.	.	.	.	.	.	.	.	.	.	.	.	.	.	.	.	.	.	.	.	.	.	.	.	.	.	.	.	.
!	!	!	!	!	!	!	!	!	!	!	!	!	!	!	!	!	!	!	!	!	!	!	!	!	!	!	!	!	!	!	!	!	!	!LO:LB:g=original	!
=10	=10	=10	=10	=10	=10	=10	=10	=10	=10	=10	=10	=10	=10	=10	=10	=10	=10	=10	=10	=10	=10	=10	=10	=10	=10	=10	=10	=10	=10	=10	=10	=10	=10	=10	=10
*	*	*	*	*	*	*	*	*ij	*ij	*	*	*	*	*ij	*ij	*	*	*	*ij	*ij	*	*	*	*	*	*	*	*	*	*	*	*	*	*	*
!	!	!	!	!	!	!	!	!	!	!	!	!	!	!	!	!	!	!LO:TX:t=P:problem=4dd poprawione na 2dd	!	!	!	!	!	!	!	!	!	!	!	!	!	!	!	!	!
8D/L	.	.	16a 16f#/LL	.	4dd 4d/	.	2D/	dex-	dex-	.	.	1ryy	2f#\	dex-	dex-	.	.	2dd\	dex-	dex-	.	.	1ryy	4dd\	.	4ff#\	.	2.a/	.	2.ff#\	.	2ff#\	.	4ddd\	.
.	.	.	16a 16f#/	.	.	.	.	.	.	.	.	.	.	.	.	.	.	.	.	.	.	.	.	.	.	.	.	.	.	.	.	.	.	.	.
8D/	.	.	16a 16f#/	.	.	.	.	.	.	.	.	.	.	.	.	.	.	.	.	.	.	.	.	.	.	.	.	.	.	.	.	.	.	.	.
.	.	.	16a 16f#/	.	.	.	.	.	.	.	.	.	.	.	.	.	.	.	.	.	.	.	.	.	.	.	.	.	.	.	.	.	.	.	.
8D/	.	.	16a 16f#/	.	16dd\LL	.	.	.	.	.	.	.	.	.	.	.	.	.	.	.	.	.	.	8dd\L	.	8ff#\L	.	.	.	.	.	.	.	8ddd\L	.
.	.	.	16a 16f#/	.	16cc#\	.	.	.	.	.	.	.	.	.	.	.	.	.	.	.	.	.	.	.	.	.	.	.	.	.	.	.	.	.	.
8D/J	.	.	16a 16f#/	.	16dd\	.	.	.	.	.	.	.	.	.	.	.	.	.	.	.	.	.	.	8dd\J	.	8ff#\J	.	.	.	.	.	.	.	8eee\J	.
.	.	.	16a 16f#/JJ	.	16ee\JJ	.	.	.	.	.	.	.	.	.	.	.	.	.	.	.	.	.	.	.	.	.	.	.	.	.	.	.	.	.	.
!LO:TX:t=P:problem=2D poprawione na 2BB	!	!	!	!	!	!	!	!	!	!	!	!	!	!	!	!	!	!	!	!	!	!	!	!	!	!	!	!	!	!	!	!	!	!	!
8BB/L	5	.	16dd\LL	.	4ff#\	.	4d\	-te-	-te-	.	.	.	4f#\	-te-	-te-	.	.	4dd\	-te-	-te-	.	.	.	4dd\	.	4ff#\	.	.	.	.	.	4ff#\	.	4fff#\	.
.	#6\	.	16dd\	.	.	.	.	.	.	.	.	.	.	.	.	.	.	.	.	.	.	.	.	.	.	.	.	.	.	.	.	.	.	.	.
8BB/	.	.	16dd\	.	.	.	.	.	.	.	.	.	.	.	.	.	.	.	.	.	.	.	.	.	.	.	.	.	.	.	.	.	.	.	.
.	.	.	16dd\	.	.	.	.	.	.	.	.	.	.	.	.	.	.	.	.	.	.	.	.	.	.	.	.	.	.	.	.	.	.	.	.
8BB/	.	.	16dd\	.	16ff#\LL	.	4B\	-ram	-ram	.	.	.	4g#X\	-ram	-ram	.	.	4dd\	-ram	-ram	.	.	.	4ee\	.	4ee\	.	4dd\	.	4gg#X\	.	4gg#X\	.	4ddd\	.
*	*	*	*	*	*	*	*	*Xij	*Xij	*	*	*	*	*Xij	*Xij	*	*	*	*Xij	*Xij	*	*	*	*	*	*	*	*	*	*	*	*	*	*	*
.	.	.	16dd\	.	16ee\	.	.	.	.	.	.	.	.	.	.	.	.	.	.	.	.	.	.	.	.	.	.	.	.	.	.	.	.	.	.
8BB/J	.	.	16dd\	.	16ff#\	.	.	.	.	.	.	.	.	.	.	.	.	.	.	.	.	.	.	.	.	.	.	.	.	.	.	.	.	.	.
.	.	.	16dd\JJ	.	16gg#X\JJ	.	.	.	.	.	.	.	.	.	.	.	.	.	.	.	.	.	.	.	.	.	.	.	.	.	.	.	.	.	.
*Xtremolo	*	*	*Xtremolo	*	*	*	*	*	*	*	*	*	*	*	*	*	*	*	*	*	*	*	*	*	*	*	*	*	*	*	*	*	*	*	*
*	*	*	*custos:cc	*	*	*	*	*	*	*	*	*	*	*	*	*	*	*	*	*	*	*	*	*	*	*	*	*	*	*	*	*	*	*	*
!LO:LB:g=original	!	!	!LO:LB:g=original	!	!	!	!	!	!	!	!	!	!	!	!	!	!	!	!	!	!	!	!	!	!	!	!	!	!	!	!	!	!	!	!
=11	=11	=11	=11	=11	=11	=11	=11	=11	=11	=11	=11	=11	=11	=11	=11	=11	=11	=11	=11	=11	=11	=11	=11	=11	=11	=11	=11	=11	=11	=11	=11	=11	=11	=11	=11
4AA/	.	.	4cc#\	.	4aa\	.	2A\	pa-	Pa-	.	.	1ryy	2a\	Pa-	Pa-	.	.	2cc#\	Pa-	Pa-	.	.	1ryy	4a/	.	4ee\	.	4cc#\	.	4aa\	.	4aa\	.	4ccc#\	.
4A\	.	.	4cc# 4e\	.	4aa 4a\	.	.	.	.	.	.	.	.	.	.	.	.	.	.	.	.	.	.	4a/	.	4ee\	.	4cc#\	.	4aa\	.	8aa\L	.	8aa\L	.
.	.	.	.	.	.	.	.	.	.	.	.	.	.	.	.	.	.	.	.	.	.	.	.	.	.	.	.	.	.	.	.	8aa\J	.	8aa\J	.
8AA/L	.	.	4cc# 4e\	.	4aa 4a\	.	4A\	-triſ	-tris.	.	.	.	4a\	-triſ	-tris.	.	.	4cc#\	-triſ	-tris.	.	.	.	4a/	.	4ee\	.	4cc#\	.	4aa\	.	4aa\	.	4aa\	.
8AA/	.	.	.	.	.	.	.	.	.	.	.	.	.	.	.	.	.	.	.	.	.	.	.	.	.	.	.	.	.	.	.	.	.	.	.
8C#/	.	.	4r	.	4r	.	4r	.	.	.	.	.	4r	.	.	.	.	4r	.	.	.	.	.	4r	.	4r	.	4r	.	4r	.	4r	.	4r	.
8E/J	.	.	.	.	.	.	.	.	.	.	.	.	.	.	.	.	.	.	.	.	.	.	.	.	.	.	.	.	.	.	.	.	.	.	.
!	!	!	!	!	!	!	!	!	!	!	!	!	!LO:LB:g=original	!	!	!	!	!	!	!	!	!	!	!	!	!	!	!	!	!	!	!	!	!	!
=12	=12	=12	=12	=12	=12	=12	=12	=12	=12	=12	=12	=12	=12	=12	=12	=12	=12	=12	=12	=12	=12	=12	=12	=12	=12	=12	=12	=12	=12	=12	=12	=12	=12	=12	=12
*tremolo	*	*	*tremolo	*	*	*	*	*	*	*	*	*	*	*	*	*	*	*	*	*	*	*	*	*	*	*	*	*	*	*	*	*	*	*	*
8A\L	.	.	16cc# 16e/LL	.	8a\L	.	2A\	et	Et	.	.	1ryy	2a\	et	Et	.	.	4cc#\	et	Et	.	.	1ryy	1a	.	1ee	.	1cc#	.	1ee	.	2aa\	.	2ccc#\	.
.	.	.	16cc# 16e/	.	.	.	.	.	.	.	.	.	.	.	.	.	.	.	.	.	.	.	.	.	.	.	.	.	.	.	.	.	.	.	.
8A\	.	.	16cc# 16e/	.	8cc#\J	.	.	.	.	.	.	.	.	.	.	.	.	.	.	.	.	.	.	.	.	.	.	.	.	.	.	.	.	.	.
.	.	.	16cc# 16e/	.	.	.	.	.	.	.	.	.	.	.	.	.	.	.	.	.	.	.	.	.	.	.	.	.	.	.	.	.	.	.	.
8A\	.	.	16cc# 16e/	.	4.ee\	.	.	.	.	.	.	.	.	.	.	.	.	8cc#\	i-	i-	.	.	.	.	.	.	.	.	.	.	.	.	.	.	.
.	.	.	16cc# 16e/	.	.	.	.	.	.	.	.	.	.	.	.	.	.	.	.	.	.	.	.	.	.	.	.	.	.	.	.	.	.	.	.
8A\J	.	.	16cc# 16e/	.	.	.	.	.	.	.	.	.	.	.	.	.	.	8cc#\	-te-	-te-	.	.	.	.	.	.	.	.	.	.	.	.	.	.	.
.	.	.	16cc# 16e/JJ	.	.	.	.	.	.	.	.	.	.	.	.	.	.	.	.	.	.	.	.	.	.	.	.	.	.	.	.	.	.	.	.
8A\L	.	.	16cc# 16e/LL	.	.	.	4A\	i-	i-	.	.	.	4a\	i-	i-	.	.	4cc#\	-rum	-rum	.	.	.	.	.	.	.	.	.	.	.	4aa\	.	4ccc#\	.
.	.	.	16cc# 16e/	.	.	.	.	.	.	.	.	.	.	.	.	.	.	.	.	.	.	.	.	.	.	.	.	.	.	.	.	.	.	.	.
8A\	.	.	16cc# 16e/	.	16ff#\LL	.	.	.	.	.	.	.	.	.	.	.	.	.	.	.	.	.	.	.	.	.	.	.	.	.	.	.	.	.	.
.	.	.	16cc# 16e/	.	16ee\JJ	.	.	.	.	.	.	.	.	.	.	.	.	.	.	.	.	.	.	.	.	.	.	.	.	.	.	.	.	.	.
8A\	.	.	16cc# 16e/	.	16dd/LL	.	4A\	-te-	-te-	.	.	.	4a\	-te-	-te-	.	.	4cc#\	ven-	ven-	.	.	.	.	.	.	.	.	.	.	.	4aa\	.	4ccc#\	.
.	.	.	16cc# 16e/	.	16cc#/	.	.	.	.	.	.	.	.	.	.	.	.	.	.	.	.	.	.	.	.	.	.	.	.	.	.	.	.	.	.
8A\J	.	.	16cc# 16e/	.	16b/	.	.	.	.	.	.	.	.	.	.	.	.	.	.	.	.	.	.	.	.	.	.	.	.	.	.	.	.	.	.
.	.	.	16cc# 16e/JJ	.	16a/JJ	.	.	.	.	.	.	.	.	.	.	.	.	.	.	.	.	.	.	.	.	.	.	.	.	.	.	.	.	.	.
=13	=13	=13	=13	=13	=13	=13	=13	=13	=13	=13	=13	=13	=13	=13	=13	=13	=13	=13	=13	=13	=13	=13	=13	=13	=13	=13	=13	=13	=13	=13	=13	=13	=13	=13	=13
*	*	*	*	*	*	*	*	*	*	*	*	*	*	*	*	*	*	*	*	*	*	*	*	*2\right	*	*	*	*	*	*	*	*	*	*	*
8G#X\L	6 5	.	16dd 16e/LL	.	8ee\L	.	2G#X\	-rum	-rum	.	.	1ryy	2b\	-rum	-rum	.	.	4dd\	-tu-	-tu-	.	.	1ryy	2ee\	.	2ee\	.	1dd	.	1ee	.	1bb	.	1ddd	.
.	.	.	16dd 16e/	.	.	.	.	.	.	.	.	.	.	.	.	.	.	.	.	.	.	.	.	.	.	.	.	.	.	.	.	.	.	.	.
8G#X\	.	.	16dd 16e/	.	8gg#X\J	.	.	.	.	.	.	.	.	.	.	.	.	.	.	.	.	.	.	.	.	.	.	.	.	.	.	.	.	.	.
.	.	.	16dd 16e/	.	.	.	.	.	.	.	.	.	.	.	.	.	.	.	.	.	.	.	.	.	.	.	.	.	.	.	.	.	.	.	.
8G#X\	.	.	16dd 16e/	.	4.bb\	.	.	.	.	.	.	.	.	.	.	.	.	4dd\	-ruſ	-rus	.	.	.	.	.	.	.	.	.	.	.	.	.	.	.
.	.	.	16dd 16e/	.	.	.	.	.	.	.	.	.	.	.	.	.	.	.	.	.	.	.	.	.	.	.	.	.	.	.	.	.	.	.	.
8G#X\J	.	.	16dd 16e/	.	.	.	.	.	.	.	.	.	.	.	.	.	.	.	.	.	.	.	.	.	.	.	.	.	.	.	.	.	.	.	.
.	.	.	16dd 16e/JJ	.	.	.	.	.	.	.	.	.	.	.	.	.	.	.	.	.	.	.	.	.	.	.	.	.	.	.	.	.	.	.	.
8G#\L	.	.	16dd 16e/LL	.	.	.	2G#\	ven-	ven-	.	.	.	2b\	Ven-	ven-	.	.	4dd\	eſt	est	.	.	.	4ee\	.	4ee\	.	.	.	.	.	.	.	.	.
.	.	.	16dd 16e/	.	.	.	.	.	.	.	.	.	.	.	.	.	.	.	.	.	.	.	.	.	.	.	.	.	.	.	.	.	.	.	.
8G#\	.	.	16dd 16e/	.	16ccc#\LL	.	.	.	.	.	.	.	.	.	.	.	.	.	.	.	.	.	.	.	.	.	.	.	.	.	.	.	.	.	.
.	.	.	16dd 16e/	.	16bb\JJ	.	.	.	.	.	.	.	.	.	.	.	.	.	.	.	.	.	.	.	.	.	.	.	.	.	.	.	.	.	.
!	!	!	!	!	!LO:LB:g=original	!	!	!	!	!	!	!	!	!	!	!	!	!	!	!	!	!	!	!	!	!	!	!	!	!	!	!	!	!	!
8G#\	.	.	16dd 16e/	.	16aa\LL	.	.	.	.	.	.	.	.	.	.	.	.	4dd\	cum	cum	.	.	.	4ee\	.	4ee\	.	.	.	.	.	.	.	.	.
!	!	!	!	!	!LO:SIC:s=16gg#\	!	!	!	!	!	!	!	!	!	!	!	!	!	!	!	!	!	!	!	!	!	!	!	!	!	!	!	!	!	!
.	.	.	16dd 16e/	.	16gg#X\	.	.	.	.	.	.	.	.	.	.	.	.	.	.	.	.	.	.	.	.	.	.	.	.	.	.	.	.	.	.
8G#\J	.	.	16dd 16e/	.	16ff#\	.	.	.	.	.	.	.	.	.	.	.	.	.	.	.	.	.	.	.	.	.	.	.	.	.	.	.	.	.	.
.	.	.	16dd 16e/JJ	.	16ee\JJ	.	.	.	.	.	.	.	.	.	.	.	.	.	.	.	.	.	.	.	.	.	.	.	.	.	.	.	.	.	.
*	*	*	*Xtremolo	*	*	*	*	*	*	*	*	*	*	*	*	*	*	*	*	*	*	*	*	*	*	*	*	*	*	*	*	*	*	*	*
=14	=14	=14	=14	=14	=14	=14	=14	=14	=14	=14	=14	=14	=14	=14	=14	=14	=14	=14	=14	=14	=14	=14	=14	=14	=14	=14	=14	=14	=14	=14	=14	=14	=14	=14	=14
8A\L	.	.	8a\L	.	4aa\	.	2.A\	-tu-	-tu-	.	.	1ryy	2.a\	-tu-	-tu-	.	.	4cc#\	Glo-	glo-	.	.	1ryy	1a	.	1ee	.	1cc#	.	1ee	.	1aa	.	1ccc#	.
8A\	.	.	8cc#\J	.	.	.	.	.	.	.	.	.	.	.	.	.	.	.	.	.	.	.	.	.	.	.	.	.	.	.	.	.	.	.	.
8A\	.	.	4.ee\	.	4r	.	.	.	.	.	.	.	.	.	.	.	.	8cc#\	-ri-	-ri-	.	.	.	.	.	.	.	.	.	.	.	.	.	.	.
8A\J	.	.	.	.	.	.	.	.	.	.	.	.	.	.	.	.	.	8cc#\	-a	-a,	.	.	.	.	.	.	.	.	.	.	.	.	.	.	.
8A\L	.	.	.	.	2r	.	.	.	.	.	.	.	.	.	.	.	.	4cc#\	ju-	ju-	.	.	.	.	.	.	.	.	.	.	.	.	.	.	.
8A\	.	.	16ff#\LL	.	.	.	.	.	.	.	.	.	.	.	.	.	.	.	.	.	.	.	.	.	.	.	.	.	.	.	.	.	.	.	.
.	.	.	16ee\JJ	.	.	.	.	.	.	.	.	.	.	.	.	.	.	.	.	.	.	.	.	.	.	.	.	.	.	.	.	.	.	.	.
8A\	.	.	16dd\LL	.	.	.	4A\	-ruſ	-rus	.	.	.	4a\	-ruſ	-rus	.	.	4cc#\	-di-	-di-	.	.	.	.	.	.	.	.	.	.	.	.	.	.	.
.	.	.	16cc#\	.	.	.	.	.	.	.	.	.	.	.	.	.	.	.	.	.	.	.	.	.	.	.	.	.	.	.	.	.	.	.	.
8A\J	.	.	16b\	.	.	.	.	.	.	.	.	.	.	.	.	.	.	.	.	.	.	.	.	.	.	.	.	.	.	.	.	.	.	.	.
.	.	.	16a\JJ	.	.	.	.	.	.	.	.	.	.	.	.	.	.	.	.	.	.	.	.	.	.	.	.	.	.	.	.	.	.	.	.
=15	=15	=15	=15	=15	=15	=15	=15	=15	=15	=15	=15	=15	=15	=15	=15	=15	=15	=15	=15	=15	=15	=15	=15	=15	=15	=15	=15	=15	=15	=15	=15	=15	=15	=15	=15
*	*	*	*tremolo	*	*	*	*	*	*	*	*	*	*	*	*	*	*	*	*	*	*	*	*	*	*	*	*	*	*	*	*	*	*	*	*
8G#X\L	6 5	.	16dd 16e/LL	.	8ee\L	.	2G#X\	eſt	est	.	.	1ryy	2b\	est	est	.	.	2dd\	-ca-	-ca-	.	.	1ryy	2ee\	.	2ee\	.	1dd	.	1ee	.	1bb	.	1ddd	.
.	.	.	16dd 16e/	.	.	.	.	.	.	.	.	.	.	.	.	.	.	.	.	.	.	.	.	.	.	.	.	.	.	.	.	.	.	.	.
8G#X\	.	.	16dd 16e/	.	8gg#X\J	.	.	.	.	.	.	.	.	.	.	.	.	.	.	.	.	.	.	.	.	.	.	.	.	.	.	.	.	.	.
.	.	.	16dd 16e/	.	.	.	.	.	.	.	.	.	.	.	.	.	.	.	.	.	.	.	.	.	.	.	.	.	.	.	.	.	.	.	.
8G#X\	.	.	16dd 16e/	.	4.bb\	.	.	.	.	.	.	.	.	.	.	.	.	.	.	.	.	.	.	.	.	.	.	.	.	.	.	.	.	.	.
.	.	.	16dd 16e/	.	.	.	.	.	.	.	.	.	.	.	.	.	.	.	.	.	.	.	.	.	.	.	.	.	.	.	.	.	.	.	.
8G#X\J	.	.	16dd 16e/	.	.	.	.	.	.	.	.	.	.	.	.	.	.	.	.	.	.	.	.	.	.	.	.	.	.	.	.	.	.	.	.
.	.	.	16dd 16e/JJ	.	.	.	.	.	.	.	.	.	.	.	.	.	.	.	.	.	.	.	.	.	.	.	.	.	.	.	.	.	.	.	.
8G#\L	.	.	16dd 16e/LL	.	.	.	2G#\	Cum	cum	.	.	.	2b\	Cum	cum	.	.	2dd\	-re	-re	.	.	.	4ee\	.	4ee\	.	.	.	.	.	.	.	.	.
.	.	.	16dd 16e/	.	.	.	.	.	.	.	.	.	.	.	.	.	.	.	.	.	.	.	.	.	.	.	.	.	.	.	.	.	.	.	.
8G#\	.	.	16dd 16e/	.	16ccc#\LL	.	.	.	.	.	.	.	.	.	.	.	.	.	.	.	.	.	.	.	.	.	.	.	.	.	.	.	.	.	.
.	.	.	16dd 16e/	.	16bb\JJ	.	.	.	.	.	.	.	.	.	.	.	.	.	.	.	.	.	.	.	.	.	.	.	.	.	.	.	.	.	.
8G#\	.	.	16dd 16e/	.	16aa\LL	.	.	.	.	.	.	.	.	.	.	.	.	.	.	.	.	.	.	4ee\	.	4ee\	.	.	.	.	.	.	.	.	.
.	.	.	16dd 16e/	.	16gg#\	.	.	.	.	.	.	.	.	.	.	.	.	.	.	.	.	.	.	.	.	.	.	.	.	.	.	.	.	.	.
8G#\J	.	.	16dd 16e/	.	16ff#\	.	.	.	.	.	.	.	.	.	.	.	.	.	.	.	.	.	.	.	.	.	.	.	.	.	.	.	.	.	.
.	.	.	16dd 16e/JJ	.	16ee\JJ	.	.	.	.	.	.	.	.	.	.	.	.	.	.	.	.	.	.	.	.	.	.	.	.	.	.	.	.	.	.
!	!	!	!	!	!	!	!	!	!	!	!	!	!	!	!	!	!	!	!	!	!	!	!	!	!	!	!	!	!	!LO:LB:g=original	!	!	!	!	!
=16	=16	=16	=16	=16	=16	=16	=16	=16	=16	=16	=16	=16	=16	=16	=16	=16	=16	=16	=16	=16	=16	=16	=16	=16	=16	=16	=16	=16	=16	=16	=16	=16	=16	=16	=16
*	*	*	*	*	*tremolo	*	*	*	*	*	*	*	*	*	*	*	*	*	*	*	*	*	*	*	*	*	*	*	*	*	*	*	*	*	*
8A\L	.	.	16cc#\LL	.	16aa\LL	.	(4A\	glo-	glo-	.	.	1ryy	2.a\	Glo-	glo-	.	.	4cc#\	Vi-	vi-	.	.	1ryy	4a/	.	4ee\	.	4cc#\	.	4ee\	.	4aa\	.	4ccc#\	.
.	.	.	16cc#\	.	16aa\	.	.	.	.	.	.	.	.	.	.	.	.	.	.	.	.	.	.	.	.	.	.	.	.	.	.	.	.	.	.
8A\J	.	.	16cc#\	.	16aa\	.	.	.	.	.	.	.	.	.	.	.	.	.	.	.	.	.	.	.	.	.	.	.	.	.	.	.	.	.	.
.	.	.	16cc#\	.	16aa\	.	.	.	.	.	.	.	.	.	.	.	.	.	.	.	.	.	.	.	.	.	.	.	.	.	.	.	.	.	.
8F#\L	.	.	16cc#\	.	16aa\	.	4F#\	.	.	.	.	.	.	.	.	.	.	8cc#\	-voſ	-vos	.	.	.	4a/	.	4ff#\	.	4cc#\	.	4aa\	.	4aa\	.	4ccc#\	.
.	.	.	16cc#\	.	16aa\	.	.	.	.	.	.	.	.	.	.	.	.	.	.	.	.	.	.	.	.	.	.	.	.	.	.	.	.	.	.
8F#\J	.	.	16cc#\	.	16aa\	.	.	.	.	.	.	.	.	.	.	.	.	8cc#\	et	et	.	.	.	.	.	.	.	.	.	.	.	.	.	.	.
.	.	.	16cc#\JJ	.	16aa\JJ	.	.	.	.	.	.	.	.	.	.	.	.	.	.	.	.	.	.	.	.	.	.	.	.	.	.	.	.	.	.
!	!	!	!	!	!	!	!LO:SIC:s=4D\)	!	!	!	!	!	!	!	!	!	!	!	!	!	!	!	!	!	!	!	!	!	!	!	!	!	!	!	!
8D\L	6	.	16b\LL	.	16aa\LL	.	4D\	.	.	.	.	.	.	.	.	.	.	4b\	mor-	mor-	.	.	.	4dd\	.	4ff#\	.	4b\	.	4aa\	.	4aa\	.	4bb\	.
.	.	.	16b\	.	16aa\	.	.	.	.	.	.	.	.	.	.	.	.	.	.	.	.	.	.	.	.	.	.	.	.	.	.	.	.	.	.
8D\J	.	.	16b\	.	16aa\	.	.	.	.	.	.	.	.	.	.	.	.	.	.	.	.	.	.	.	.	.	.	.	.	.	.	.	.	.	.
.	.	.	16b\	.	16aa\JJ	.	.	.	.	.	.	.	.	.	.	.	.	.	.	.	.	.	.	.	.	.	.	.	.	.	.	.	.	.	.
!	!	!	!	!	!	!	!LO:SIC:s=4E\	!	!	!	!	!	!	!	!	!	!	!	!	!	!	!	!	!	!	!	!	!	!	!	!	!	!	!	!
8E\L	#	.	16b\	.	16gg#X\LL	.	4E\)	-ri-	-ri-	.	.	.	4g#X\	-ri-	-ri-	.	.	4b\	-tu-	-tu-	.	.	.	4ee\	.	4ee\	.	4b\	.	4gg#X\	.	4gg#X\	.	4bb\	.
.	.	.	16b\	.	16gg#X\	.	.	.	.	.	.	.	.	.	.	.	.	.	.	.	.	.	.	.	.	.	.	.	.	.	.	.	.	.	.
8E\J	.	.	16b\	.	16gg#X\	.	.	.	.	.	.	.	.	.	.	.	.	.	.	.	.	.	.	.	.	.	.	.	.	.	.	.	.	.	.
.	.	.	16b\JJ	.	16gg#X\JJ	.	.	.	.	.	.	.	.	.	.	.	.	.	.	.	.	.	.	.	.	.	.	.	.	.	.	.	.	.	.
*Xtremolo	*	*	*Xtremolo	*	*Xtremolo	*	*	*	*	*	*	*	*	*	*	*	*	*	*	*	*	*	*	*custos:g	*	*	*	*	*	*	*	*	*	*	*
!	!	!	!	!	!	!	!	!	!	!	!	!	!	!	!	!	!	!	!	!	!	!	!	!LO:PB:g=original	!	!	!	!LO:LB:g=original	!	!	!	!	!	!	!
=17	=17	=17	=17	=17	=17	=17	=17	=17	=17	=17	=17	=17	=17	=17	=17	=17	=17	=17	=17	=17	=17	=17	=17	=17	=17	=17	=17	=17-	=17	=17	=17	=17	=17	=17	=17
!	!	!	!	!	!	!	!	!	!	!	!	!	!	!	!	!	!	!	!	!	!	!	!	!	!	!	!	!LO:TX:t=P:problem=niekompletne źródło	!	!	!	!	!	!	!
4AA/	.	.	4cc#\	.	4aa\	.	4AA/	-a	-a.	.	.	1ryy	4a\	-a	-a.	.	.	4cc#\	-oſ	-os.	.	.	1ryy	4a/	.	4ee\	.	4ryy	.	4aa\	.	4aa\	.	4aa\	.
8A\L	.	.	8e/L	.	8a/L	.	4r	.	.	.	.	.	4r	.	.	.	.	4r	.	.	.	.	.	4a/	.	4ee\	.	4r	.	4r	.	4r	.	4r	.
8A\J	.	.	8e/J	.	8a/J	.	.	.	.	.	.	.	.	.	.	.	.	.	.	.	.	.	.	.	.	.	.	.	.	.	.	.	.	.	.
8A'\L	.	.	4c#/	.	4a/	.	2r	.	.	.	.	.	2r	.	.	.	.	2r	.	.	.	.	.	4a/	.	4ee\	.	2r	.	2r	.	2r	.	2r	.
8G'\	.	.	.	.	.	.	.	.	.	.	.	.	.	.	.	.	.	.	.	.	.	.	.	.	.	.	.	.	.	.	.	.	.	.	.
8Fn'\	.	.	4r	.	4r	.	.	.	.	.	.	.	.	.	.	.	.	.	.	.	.	.	.	4r	.	4r	.	.	.	.	.	.	.	.	.
8E'\J	.	.	.	.	.	.	.	.	.	.	.	.	.	.	.	.	.	.	.	.	.	.	.	.	.	.	.	.	.	.	.	.	.	.	.
!	!	!	!	!	!	!	!LO:LB:g=original	!	!	!	!	!	!	!	!	!	!	!LO:LB:g=original	!	!	!	!	!	!	!	!LO:PB:g=original	!	!	!	!	!	!	!	!	!
=18	=18	=18	=18	=18	=18	=18	=18	=18	=18	=18	=18	=18	=18	=18	=18	=18	=18	=18	=18	=18	=18	=18	=18	=18	=18	=18	=18	=18	=18	=18	=18	=18	=18	=18	=18
!	!	!	!	!	!	!	!	!	!	!	!	!	!	!	!	!	!	!	!	!	!	!	!	!	!	!	!	!	!	!	!	!LO:TX:a:t=12:mod=	!	!	!
4D\	.	.	(8A/L	.	(8a\L	.	4AA/	et	Et	.	.	1ryy	4d\	et	Et	.	.	4a\	et	Et	.	.	1ryy	4r	.	4r	.	00r	.	00r	.	00r	.	00r	.
!	!	!	!LO:SIC:s=8d/)	!	!	!	!	!	!	!	!	!	!	!	!	!	!	!	!	!	!	!	!	!	!	!	!	!	!	!	!	!	!	!	!
.	.	.	8d/	.	8dd\)	.	.	.	.	.	.	.	.	.	.	.	.	.	.	.	.	.	.	.	.	.	.	.	.	.	.	.	.	.	.
!	!	!	!LO:SIC:s=8d|/	!	!	!	!	!	!	!	!	!	!	!	!	!	!	!	!	!	!	!	!	!	!	!	!	!	!	!	!	!	!	!	!
4D\	.	.	8d|/)	.	8dd'\	.	4D\	in	in	.	.	.	4d\	in	in	.	.	4dd\	in	in	.	.	.	4d/	.	4dd\	.	.	.	.	.	.	.	.	.
.	.	.	8d|/J	.	8dd'\J	.	.	.	.	.	.	.	.	.	.	.	.	.	.	.	.	.	.	.	.	.	.	.	.	.	.	.	.	.	.
4Fn\	6	.	4.d/	.	4.dd\	.	4D\	Spi-	Spi-	.	.	.	4d\	Spi-	Spi-	.	.	4dd\	Spi-	Spi-	.	.	.	4d/	.	4dd\	.	.	.	.	.	.	.	.	.
4D\	.	.	.	.	.	.	8D\	-ri-	-ri-	.	.	.	8d\	-ri-	-ri-	.	.	8dd\	-ri-	-ri-	.	.	.	4d/	.	4dd\	.	.	.	.	.	.	.	.	.
.	.	.	8fn/	.	8ffn\	.	8Fn\	-tum	-tum	.	.	.	8fn\	-tum	-tum	.	.	8ffn\	-tum	-tum	.	.	.	.	.	.	.	.	.	.	.	.	.	.	.
=19	=19	=19	=19	=19	=19	=19	=19	=19	=19	=19	=19	=19	=19	=19	=19	=19	=19	=19	=19	=19	=19	=19	=19	=19	=19	=19	=19	=19	=19	=19	=19	=19	=19	=19	=19
4r	.	.	8e/L	.	8ee\L	.	4E\	S(an)-	S(an)-	.	.	1ryy	4e\	San-	San-	.	.	4ee\	S(an)-	S(an)-	.	.	1ryy	4r	.	4r	.	.	.	.	.	.	.	.	.
.	.	.	8A/	.	8a\	.	.	.	.	.	.	.	.	.	.	.	.	.	.	.	.	.	.	.	.	.	.	.	.	.	.	.	.	.	.
4AA/	.	.	8e/	.	8ee\	.	4E\	-ctu(m)	-ctu(m),	.	.	.	4e\	-ctum	-ctum,	.	.	4ee\	-ctu(m)	-ctu(m),	.	.	.	4a/	.	4ee\	.	.	.	.	.	.	.	.	.
.	.	.	8e/J	.	8ee\J	.	.	.	.	.	.	.	.	.	.	.	.	.	.	.	.	.	.	.	.	.	.	.	.	.	.	.	.	.	.
*	*	*	*	*	*	*	*	*	*	*	*	*	*custos:e	*	*	*	*	*	*	*	*	*	*	*	*	*	*	*	*	*	*	*	*	*	*
!	!	!	!	!	!	!	!	!	!	!	!	!	!LO:LB:g=original	!	!	!	!	!	!	!	!	!	!	!	!	!	!	!	!	!	!	!	!	!	!
4C#/	6	.	4.e/	.	4.ee\	.	4E\	D(o-	D(o-	.	.	.	4e\	Do-	Do-	.	.	4ee\	Do-	Do-	.	.	.	4a/	.	4ee\	.	.	.	.	.	.	.	.	.
4AA/	.	.	.	.	.	.	8E\	-mi)-	-mi)-	.	.	.	8e\	-mi-	-mi-	.	.	8ee\	-mi-	-mi-	.	.	.	4a/	.	4ee\	.	.	.	.	.	.	.	.	.
.	.	.	8g/	.	8gg\	.	8G\	-num	-num,	.	.	.	8g\	-num	-num,	.	.	8gg\	-num	-num,	.	.	.	.	.	.	.	.	.	.	.	.	.	.	.
=20	=20	=20	=20	=20	=20	=20	=20	=20	=20	=20	=20	=20	=20	=20	=20	=20	=20	=20	=20	=20	=20	=20	=20	=20	=20	=20	=20	=20	=20	=20	=20	=20	=20	=20	=20
4r	.	.	8fn/L	.	8ffn\L	.	4Fn\	et	et	.	.	1ryy	4fn\	et	et	.	.	4ffn\	et	et	.	.	1ryy	4r	.	4r	.	.	.	.	.	.	.	.	.
.	.	.	8f/	.	8ff\	.	.	.	.	.	.	.	.	.	.	.	.	.	.	.	.	.	.	.	.	.	.	.	.	.	.	.	.	.	.
4D\	.	.	8f/	.	8ff\	.	8F\L	vi-	vi-	.	.	.	8f\L	vi-	vi-	.	.	8ff\L	vi-	vi-	.	.	.	4dd\	.	4dd\	.	.	.	.	.	.	.	.	.
.	.	.	8e/J	.	8ee\J	.	8E\J	.	.	.	.	.	8e\J	.	.	.	.	8ee\J	.	.	.	.	.	.	.	.	.	.	.	.	.	.	.	.	.
4Fn\	6	.	8d/L	.	8dd\L	.	4D\	-vi-	-vi-	.	.	.	4d\	-vi-	-vi-	.	.	4dd\	-vi-	-vi-	.	.	.	4dd\	.	4dd\	.	.	.	.	.	.	.	.	.
.	.	.	8d/	.	8dd\	.	.	.	.	.	.	.	.	.	.	.	.	.	.	.	.	.	.	.	.	.	.	.	.	.	.	.	.	.	.
4G\	.	.	8d/	.	8dd\	.	8D\L	-fi-	-fi-	.	.	.	8d\L	-fi-	-fi-	.	.	8dd\L	-fi-	-fi-	.	.	.	4dd\	.	4dd\	.	.	.	.	.	.	.	.	.
.	.	.	8f/J	.	8ff\J	.	8F\J	.	.	.	.	.	8fn\J	.	.	.	.	8ff\J	.	.	.	.	.	.	.	.	.	.	.	.	.	.	.	.	.
!LO:LB:g=original	!	!	!	!	!LO:LB:g=original	!	!	!	!	!	!	!	!	!	!	!	!	!	!	!	!	!	!	!	!	!	!	!	!	!	!	!	!	!	!
=21	=21	=21	=21	=21	=21	=21	=21	=21	=21	=21	=21	=21	=21	=21	=21	=21	=21	=21	=21	=21	=21	=21	=21	=21	=21	=21	=21	=21	=21	=21	=21	=21	=21	=21	=21
4A\	#	.	8e/L	.	8ee\L	.	2A\	-can-	-can-	.	.	1ryy	2e\	-can-	-can-	.	.	8ee\L	-can-	-can-	.	.	1ryy	4r	.	4r	.	.	.	.	.	.	.	.	.
.	.	.	8d/	.	8dd\	.	.	.	.	.	.	.	.	.	.	.	.	8dd\	.	.	.	.	.	.	.	.	.	.	.	.	.	.	.	.	.
8r	.	.	8c#/	.	8cc#\	.	.	.	.	.	.	.	.	.	.	.	.	8cc#\	.	.	.	.	.	4a/	.	4a/	.	.	.	.	.	.	.	.	.
8E'\	.	.	8B/J	.	8b\J	.	.	.	.	.	.	.	.	.	.	.	.	8b\J	.	.	.	.	.	.	.	.	.	.	.	.	.	.	.	.	.
!	!	!	!LO:LB:g=original	!	!LO:TX:t=P:problem=mixed beam	!	!	!	!	!	!	!	!	!	!	!	!	!	!	!	!	!	!	!	!	!	!	!	!	!	!	!	!	!	!
8A'\L	.	.	8A/L	.	8a/L	.	4A\	-tem	-tem:	.	.	.	4e\	-tem	-tem:	.	.	4a\	-tem	-tem:	.	.	.	4a/	.	4a/	.	.	.	.	.	.	.	.	.
8G'\	.	.	8a/J	.	8aa\J	.	.	.	.	.	.	.	.	.	.	.	.	.	.	.	.	.	.	.	.	.	.	.	.	.	.	.	.	.	.
8Fn'\	.	.	4A/	.	4a/	.	4r	.	.	.	.	.	4r	.	.	.	.	4r	.	.	.	.	.	4a/	.	4a/	.	.	.	.	.	.	.	.	.
8E'\J	.	.	.	.	.	.	.	.	.	.	.	.	.	.	.	.	.	.	.	.	.	.	.	.	.	.	.	.	.	.	.	.	.	.	.
=22	=22	=22	=22	=22	=22	=22	=22	=22	=22	=22	=22	=22	=22	=22	=22	=22	=22	=22	=22	=22	=22	=22	=22	=22	=22	=22	=22	=22	=22	=22	=22	=22	=22	=22	=22
4D\	.	.	8A/L	.	8a\L	.	4D\	qui	qui	.	.	1ryy	4d\	qui	qui	.	.	4a\	qui	qui	.	.	1ryy	4r	.	4r	.	00r	.	00r	.	00r	.	00r	.
.	.	.	8d/	.	8dd\	.	.	.	.	.	.	.	.	.	.	.	.	.	.	.	.	.	.	.	.	.	.	.	.	.	.	.	.	.	.
4D\	.	.	8d/	.	8dd\	.	4D\	ex	ex	.	.	.	4d\	ex	ex	.	.	4dd\	ex	ex	.	.	.	4d/	.	4dd\	.	.	.	.	.	.	.	.	.
.	.	.	8d/J	.	8dd\J	.	.	.	.	.	.	.	.	.	.	.	.	.	.	.	.	.	.	.	.	.	.	.	.	.	.	.	.	.	.
4Fn\	6	.	4.d/	.	4.dd\	.	4D.\	Pa-	Pa-	.	.	.	4.d\	Pa-	Pa-	.	.	4dd\	Pa-	Pa-	.	.	.	4d/	.	4dd\	.	.	.	.	.	.	.	.	.
!	!	!	!	!	!	!	!	!	!	!	!	!	!	!	!	!	!	!LO:N:vis=8	!	!	!	!	!	!	!	!	!	!	!	!	!	!	!	!	!
4D\	.	.	.	.	.	.	.	.	.	.	.	.	.	.	.	.	.	4ffn\	-tre	-tre	.	.	.	4d/	.	4dd\	.	.	.	.	.	.	.	.	.
.	.	.	8fn/	.	8ffn\	.	8Fn\	-tre	-tre	.	.	.	8fn\	-tre	-tre	.	.	.	.	.	.	.	.	.	.	.	.	.	.	.	.	.	.	.	.
=23	=23	=23	=23	=23	=23	=23	=23	=23	=23	=23	=23	=23	=23	=23	=23	=23	=23	=23	=23	=23	=23	=23	=23	=23	=23	=23	=23	=23	=23	=23	=23	=23	=23	=23	=23
4r	.	.	8e/L	.	8ee\L	.	4E\	fi-	fi-	.	.	1ryy	4e\	Fi-	Fi-	.	.	4ee\	fi-	Fi-	.	.	1ryy	4r	.	4r	.	.	.	.	.	.	.	.	.
.	.	.	8A/	.	8a\	.	.	.	.	.	.	.	.	.	.	.	.	.	.	.	.	.	.	.	.	.	.	.	.	.	.	.	.	.	.
4AA/	.	.	8e/	.	8ee\	.	4E\	-li-	-li-	.	.	.	4e\	-li-	-li-	.	.	8ee\	-li-	-li-	.	.	.	4a/	.	4ee\	.	.	.	.	.	.	.	.	.
.	.	.	8e/J	.	8ee\J	.	.	.	.	.	.	.	.	.	.	.	.	8ee\	-o-	-o-	.	.	.	.	.	.	.	.	.	.	.	.	.	.	.
!	!	!	!	!	!	!	!LO:SIC:s=(4.E\	!	!	!	!	!	!	!	!	!	!	!	!	!	!	!	!	!	!	!	!	!	!	!	!	!	!	!	!
4C#/	6	.	4.e/	.	4.ee\	.	4.E\	-o-	-o-	.	.	.	(4.e\	-o-	-o-	.	.	4ee\	-que	-que	.	.	.	4a/	.	4ee\	.	.	.	.	.	.	.	.	.
4AA/	.	.	.	.	.	.	.	.	.	.	.	.	.	.	.	.	.	4gg\	pro-	pro-	.	.	.	4a/	.	4ee\	.	.	.	.	.	.	.	.	.
!	!	!	!	!	!	!	!LO:SIC:s=8G\)	!	!	!	!	!	!	!	!	!	!	!	!	!	!	!	!	!	!	!	!	!	!	!	!	!	!	!	!
.	.	.	8g/	.	8gg\	.	8G\	.	.	.	.	.	8g\)	.	.	.	.	.	.	.	.	.	.	.	.	.	.	.	.	.	.	.	.	.	.
=24	=24	=24	=24	=24	=24	=24	=24	=24	=24	=24	=24	=24	=24	=24	=24	=24	=24	=24	=24	=24	=24	=24	=24	=24	=24	=24	=24	=24	=24	=24	=24	=24	=24	=24	=24
4r	.	.	8fn/L	.	8ffn\L	.	4Fn\	que	que	.	.	1ryy	4fn\	-que	-que	.	.	4.ffn\	-ce-	-ce-	.	.	1ryy	4r	.	4r	.	.	.	.	.	.	.	.	.
.	.	.	8f/	.	8ff\	.	.	.	.	.	.	.	.	.	.	.	.	.	.	.	.	.	.	.	.	.	.	.	.	.	.	.	.	.	.
4D\	.	.	8f/	.	8ff\	.	4r	.	.	.	.	.	4r	.	.	.	.	.	.	.	.	.	.	4dd\	.	4dd\	.	.	.	.	.	.	.	.	.
.	.	.	8e/J	.	8ee\J	.	.	.	.	.	.	.	.	.	.	.	.	8ee\	.	.	.	.	.	.	.	.	.	.	.	.	.	.	.	.	.
4Fn\	6_	.	8d/L	.	8dd\L	.	4r	.	.	.	.	.	4r	.	.	.	.	4.dd\	-dit	-dit,	.	.	.	4dd\	.	4dd\	.	.	.	.	.	.	.	.	.
.	.	.	8d/	.	8dd\	.	.	.	.	.	.	.	.	.	.	.	.	.	.	.	.	.	.	.	.	.	.	.	.	.	.	.	.	.	.
4G\	.	.	8d/	.	8dd\	.	4F\	pro-	pro-	.	.	.	4f\	pro-	pro-	.	.	.	.	.	.	.	.	4dd\	.	4dd\	.	.	.	.	.	.	.	.	.
.	.	.	8f/J	.	8ff\J	.	.	.	.	.	.	.	.	.	.	.	.	8ff\	pro-	pro-	.	.	.	.	.	.	.	.	.	.	.	.	.	.	.
*	*	*	*	*	*	*	*	*	*	*	*	*	*custos:e	*	*	*	*	*	*	*	*	*	*	*	*	*	*	*	*	*	*	*	*	*	*
!	!	!	!	!	!	!	!	!	!	!	!	!	!LO:LB:g=original	!	!	!	!	!	!	!	!	!	!	!	!	!	!	!	!	!	!	!	!	!	!
=25	=25	=25	=25	=25	=25	=25	=25	=25	=25	=25	=25	=25	=25	=25	=25	=25	=25	=25	=25	=25	=25	=25	=25	=25	=25	=25	=25	=25	=25	=25	=25	=25	=25	=25	=25
4A\	X	.	8e/L	.	16ee\LL	.	8E/L	-ce-	-ce-	.	.	1ryy	2e\	-ce-	-ce-	.	.	8ee\L	-ce-	-ce-	.	.	1ryy	4r	.	4r	.	.	.	.	.	.	.	.	.
!	!	!	!	!	!LO:SIC:v:s=16ffn\	!	!	!	!	!	!	!	!	!	!	!	!	!	!	!	!	!	!	!	!	!	!	!	!	!	!	!	!	!	!
.	.	.	.	.	16ff#\	.	.	.	.	.	.	.	.	.	.	.	.	.	.	.	.	.	.	.	.	.	.	.	.	.	.	.	.	.	.
.	.	.	8d/	.	16ee\	.	8D/	.	.	.	.	.	.	.	.	.	.	8dd\	.	.	.	.	.	.	.	.	.	.	.	.	.	.	.	.	.
.	.	.	.	.	16dd\JJ	.	.	.	.	.	.	.	.	.	.	.	.	.	.	.	.	.	.	.	.	.	.	.	.	.	.	.	.	.	.
8r	.	.	8c#/	.	16cc#\LL	.	8C#/	.	.	.	.	.	.	.	.	.	.	8cc#\	.	.	.	.	.	4a/	.	4a/	.	.	.	.	.	.	.	.	.
.	.	.	.	.	16dd\	.	.	.	.	.	.	.	.	.	.	.	.	.	.	.	.	.	.	.	.	.	.	.	.	.	.	.	.	.	.
8E|\	.	.	8B/J	.	16cc#\	.	8BB/J	.	.	.	.	.	.	.	.	.	.	8b\J	.	.	.	.	.	.	.	.	.	.	.	.	.	.	.	.	.
.	.	.	.	.	16b\JJ	.	.	.	.	.	.	.	.	.	.	.	.	.	.	.	.	.	.	.	.	.	.	.	.	.	.	.	.	.	.
!	!	!	!	!	!LO:TX:t=P:problem=mixed beam	!	!LO:LB:g=original	!	!	!	!	!	!	!	!	!	!	!LO:LB:g=original	!	!	!	!	!	!	!	!	!	!	!	!	!	!	!	!	!
8A|\L	.	.	8A/L	.	8a/L	.	4AA/	-dit	-dit.	.	.	.	4e\	-dit	-dit.	.	.	4a\	-dit	-dit.	.	.	.	4a/	.	4a/	.	.	.	.	.	.	.	.	.
8G|\	.	.	8a/J	.	8aa\J	.	.	.	.	.	.	.	.	.	.	.	.	.	.	.	.	.	.	.	.	.	.	.	.	.	.	.	.	.	.
8Fn|\	.	.	4A/	.	4a/	.	4r	.	.	.	.	.	4r	.	.	.	.	4r	.	.	.	.	.	4a/	.	4a/	.	.	.	.	.	.	.	.	.
8E|\J	.	.	.	.	.	.	.	.	.	.	.	.	.	.	.	.	.	.	.	.	.	.	.	.	.	.	.	.	.	.	.	.	.	.	.
!	!	!	!	!	!	!	!	!	!	!	!	!	!	!	!	!	!	!	!	!	!	!	!	!LO:LB:g=original	!	!	!	!	!	!	!	!	!	!	!
=26	=26	=26	=26	=26	=26	=26	=26	=26	=26	=26	=26	=26	=26	=26	=26	=26	=26	=26	=26	=26	=26	=26	=26	=26	=26	=26	=26	=26	=26	=26	=26	=26	=26	=26	=26
4Fn\	3	.	4a/	.	4aa\	.	4A\	Qui	Qui	.	.	1ryy	4a\	Qui	Qui	.	.	4aa\	Qui	Qui	.	.	1ryy	00r	.	00r	.	00r	.	00r	.	00r	.	00r	.
4D\	n	.	16fn/LL	.	16ffn\LL	.	4Fn\	Cum	cum	.	.	.	4fn\	cum	cum	.	.	4ffn\	cum	cum	.	.	.	.	.	.	.	.	.	.	.	.	.	.	.
.	.	.	16e/	.	16ee\	.	.	.	.	.	.	.	.	.	.	.	.	.	.	.	.	.	.	.	.	.	.	.	.	.	.	.	.	.	.
.	.	.	16f/	.	16ff\	.	.	.	.	.	.	.	.	.	.	.	.	.	.	.	.	.	.	.	.	.	.	.	.	.	.	.	.	.	.
.	.	.	16a/JJ	.	16aa\JJ	.	.	.	.	.	.	.	.	.	.	.	.	.	.	.	.	.	.	.	.	.	.	.	.	.	.	.	.	.	.
4E/	.	.	8g/L	.	8gg\L	.	4G\	Pa-	Pa-	.	.	.	4g\	Pa-	Pa-	.	.	4gg\	Pa-	Pa-	.	.	.	.	.	.	.	.	.	.	.	.	.	.	.
.	.	.	8g/	.	8gg\	.	.	.	.	.	.	.	.	.	.	.	.	.	.	.	.	.	.	.	.	.	.	.	.	.	.	.	.	.	.
4AA/	#	.	8g/	.	8gg\	.	8E\	-tre	-tre	.	.	.	8e\	-tre	-tre	.	.	8ee\	-tre	-tre	.	.	.	.	.	.	.	.	.	.	.	.	.	.	.
.	.	.	8e/J	.	8ee\J	.	8E\	et	et	.	.	.	8e\	et	et	.	.	8ee\	et	et	.	.	.	.	.	.	.	.	.	.	.	.	.	.	.
=27	=27	=27	=27	=27	=27	=27	=27	=27	=27	=27	=27	=27	=27	=27	=27	=27	=27	=27	=27	=27	=27	=27	=27	=27	=27	=27	=27	=27	=27	=27	=27	=27	=27	=27	=27
4D\	.	.	4fn/	.	4ffn\	.	4Fn\	fi-	Fi-	.	.	1ryy	4fn\	Fi-	Fi-	.	.	4ffn\	Fi-	Fi-	.	.	1ryy	.	.	.	.	.	.	.	.	.	.	.	.
!	!	!	!	!	!LO:LB:g=original	!	!	!	!	!	!	!	!	!	!	!	!	!	!	!	!	!	!	!	!	!	!	!	!	!	!	!	!	!	!
4Fn\	6	.	16d/LL	.	16dd\LL	.	8D\	-li-	-li-	.	.	.	8d\	-li-	-li-	.	.	8dd\	-li-	-li-	.	.	.	.	.	.	.	.	.	.	.	.	.	.	.
.	.	.	16c#/	.	16cc#\	.	.	.	.	.	.	.	.	.	.	.	.	.	.	.	.	.	.	.	.	.	.	.	.	.	.	.	.	.	.
.	.	.	16d/	.	16dd\	.	8D\	-o	-o	.	.	.	8d\	-o	-o	.	.	8dd\	-o	-o	.	.	.	.	.	.	.	.	.	.	.	.	.	.	.
.	.	.	16f/JJ	.	16ff\JJ	.	.	.	.	.	.	.	.	.	.	.	.	.	.	.	.	.	.	.	.	.	.	.	.	.	.	.	.	.	.
4A\	#	.	8e/L	.	8ee\L	.	4E\	ſi-	si-	.	.	.	4e\	Si-	si-	.	.	4ee\	ſi-	si-	.	.	.	.	.	.	.	.	.	.	.	.	.	.	.
.	.	.	8e/	.	8ee\	.	.	.	.	.	.	.	.	.	.	.	.	.	.	.	.	.	.	.	.	.	.	.	.	.	.	.	.	.	.
!	!	!	!	!	!LO:SIC:s=8cc#\	!	!	!	!	!	!	!	!	!	!	!	!	!	!	!	!	!	!	!	!	!	!	!	!	!	!	!	!	!	!
4AA/	.	.	8c#/	.	8cc#X\	.	4AA/	-mul	-mul	.	.	.	4e\	-mul	-mul	.	.	4a\	-mul	-mul	.	.	.	.	.	.	.	.	.	.	.	.	.	.	.
.	.	.	8A/J	.	8a\J	.	.	.	.	.	.	.	.	.	.	.	.	.	.	.	.	.	.	.	.	.	.	.	.	.	.	.	.	.	.
=28	=28	=28	=28	=28	=28	=28	=28	=28	=28	=28	=28	=28	=28	=28	=28	=28	=28	=28	=28	=28	=28	=28	=28	=28	=28	=28	=28	=28	=28	=28	=28	=28	=28	=28	=28
*	*	*	*^	*	*	*	*	*	*	*	*	*	*	*	*	*	*	*	*	*	*	*	*	*	*	*	*	*	*	*	*	*	*	*	*
*tremolo	*	*	*tremolo	*tremolo	*	*	*	*	*	*	*	*	*	*	*	*	*	*	*	*	*	*	*	*	*	*	*	*	*	*	*	*	*	*	*	*
!	!	!	!	!	!	!	!	!	!	!	!	!	!	!	!	!	!	!	!LO:SIC:s=4cc#\	!	!	!	!	!	!	!	!	!	!	!	!	!	!	!	!	!
8A\L	#	.	8a/L	8e\L	.	8ee\L	.	4A\	a-	a-	.	.	1ryy	4e\	A-	a-	.	.	4cc#X\	a-	a-	.	.	1ryy	.	.	.	.	.	.	.	.	.	.	.	.
8A\	.	.	8a/	8e\	.	8ee\J	.	.	.	.	.	.	.	.	.	.	.	.	.	.	.	.	.	.	.	.	.	.	.	.	.	.	.	.	.	.
!	!	!	!	!	!	!LO:SIC:s=4cc#\	!	!	!	!	!	!	!	!	!	!	!	!	!	!	!	!	!	!	!	!	!	!	!	!	!	!	!	!	!	!
8A\	.	.	8a/	8e\	.	4cc#X\	.	4A\	-do-	-do-	.	.	.	4e\	-do-	-do-	.	.	4cc#\	-do-	-do-	.	.	.	.	.	.	.	.	.	.	.	.	.	.	.
8A\J	.	.	8a/J	8e\J	.	.	.	.	.	.	.	.	.	.	.	.	.	.	.	.	.	.	.	.	.	.	.	.	.	.	.	.	.	.	.	.
8D\L	n	.	8a/L	8fn\L	.	8dd\L	.	4D\	-ra-	-ra-	.	.	.	4fn\	-ra-	-ra-	.	.	4dd\	-ra-	-ra-	.	.	.	.	.	.	.	.	.	.	.	.	.	.	.
8D\	.	.	8a/	8fn\	.	16ffn\L	.	.	.	.	.	.	.	.	.	.	.	.	.	.	.	.	.	.	.	.	.	.	.	.	.	.	.	.	.	.
.	.	.	.	.	.	16ee\JJ	.	.	.	.	.	.	.	.	.	.	.	.	.	.	.	.	.	.	.	.	.	.	.	.	.	.	.	.	.	.
8D\	.	.	8a/	8fn\	.	8dd\L	.	8D\	-tur	-tur,	.	.	.	8f\	-tur	-tur,	.	.	8dd\	-tur	-tur,	.	.	.	.	.	.	.	.	.	.	.	.	.	.	.
8D\J	.	.	8a/J	8fn\J	.	8ff\J	.	8D\	et	et	.	.	.	8f\	et	et	.	.	8dd\	et	et	.	.	.	.	.	.	.	.	.	.	.	.	.	.	.
=29	=29	=29	=29	=29	=29	=29	=29	=29	=29	=29	=29	=29	=29	=29	=29	=29	=29	=29	=29	=29	=29	=29	=29	=29	=29	=29	=29	=29	=29	=29	=29	=29	=29	=29	=29	=29
8A 8AA/L	.	.	8a/L	8e\L	.	8ee\L	.	8A\	Con-	con-	.	.	1ryy	8e\	Con-	con-	.	.	8cc#\	con-	con-	.	.	1ryy	.	.	.	.	.	.	.	.	.	.	.	.
8A 8AA/	.	.	8a/	8e\	.	8ee\J	.	8A\	-glo-	-glo-	.	.	.	8e\	-glo-	-glo-	.	.	8cc#\	-glo-	-glo-	.	.	.	.	.	.	.	.	.	.	.	.	.	.	.
!	!	!	!	!	!	!LO:SIC:s=4cc#\	!	!	!	!	!	!	!	!	!	!	!	!	!	!	!	!	!	!	!	!	!	!	!	!	!	!	!	!	!	!
8A 8AA/	.	.	8a/	8e\	.	4cc#X\	.	8A\	-ri-	-ri-	.	.	.	8e\	-ri-	-ri-	.	.	8cc#\	-ri-	-ri-	.	.	.	.	.	.	.	.	.	.	.	.	.	.	.
!	!	!	!	!	!	!	!	!	!	!	!	!	!	!LO:TX:t=P:problem:custos z kasownikiem	!	!	!	!	!	!	!	!	!	!	!	!	!	!	!	!	!	!	!	!	!	!
8A 8AA/J	.	.	8a/J	8e\J	.	.	.	8A\	-fi-	-fi-	.	.	.	8e\	-fi-	-fi-	.	.	8cc#\	-fi-	-fi-	.	.	.	.	.	.	.	.	.	.	.	.	.	.	.
*	*	*	*	*	*	*	*	*	*	*	*	*	*	*custos:f	*	*	*	*	*	*	*	*	*	*	*	*	*	*	*	*	*	*	*	*	*	*
!	!	!	!	!	!	!	!	!	!	!	!	!	!	!LO:PB:g=original	!	!	!	!	!	!	!	!	!	!	!	!	!	!	!	!	!	!	!	!	!	!
8D\L	n	.	8a/L	8fn\L	.	8dd\L	.	4D\	-ca-	-ca-	.	.	.	4fn\	-ca-	-ca-	.	.	4dd\	-ca-	-ca-	.	.	.	.	.	.	.	.	.	.	.	.	.	.	.
8D\	.	.	8a/	8fn\	.	8ffn\J	.	.	.	.	.	.	.	.	.	.	.	.	.	.	.	.	.	.	.	.	.	.	.	.	.	.	.	.	.	.
8D\	.	.	8a/	8fn\	.	4dd\	.	4D\	-tur	-tur:	.	.	.	4f\	-tur	-tur:	.	.	4dd\	-tur	-tur:	.	.	.	.	.	.	.	.	.	.	.	.	.	.	.
8D\J	.	.	8a/J	8fn\J	.	.	.	.	.	.	.	.	.	.	.	.	.	.	.	.	.	.	.	.	.	.	.	.	.	.	.	.	.	.	.	.
*	*	*	*v	*v	*	*	*	*	*	*	*	*	*	*	*	*	*	*	*	*	*	*	*	*	*	*	*	*	*	*	*	*	*	*	*	*
!	!	!	!	!	!	!	!	!	!	!	!	!	!	!	!	!	!	!	!	!	!	!	!	!	!	!LO:LB:g=original	!	!	!	!	!	!	!	!	!
=30	=30	=30	=30	=30	=30	=30	=30	=30	=30	=30	=30	=30	=30	=30	=30	=30	=30	=30	=30	=30	=30	=30	=30	=30	=30	=30	=30	=30	=30	=30	=30	=30	=30	=30	=30
*	*	*	*	*	*	*	*	*	*	*	*	*	*	*	*	*	*	*	*	*	*	*	*	*	*	*	*	*2\right	*	*	*	*	*	*8va	*
*	*	*	*^	*	*	*	*	*	*	*	*	*	*	*	*	*	*	*	*	*	*	*	*	*	*	*	*	*	*	*	*	*	*	*	*
8AA/L	#	.	8a/L	8e\L	.	8ee\L	.	4A\	Qui	qui	.	.	1ryy	4e\	Qui	qui	.	.	4ee\	Qui	qui	.	.	1ryy	2a/	.	2ee\	.	2cc#\	.	2ee\	.	2ccc#\	.	2eee\	.
8AA/	.	.	8a/	8e\	.	8ff#X\J	.	.	.	.	.	.	.	.	.	.	.	.	.	.	.	.	.	.	.	.	.	.	.	.	.	.	.	.	.	.
8AA/	.	.	8a/	8e\	.	4gg 4a\	.	4A\	lo-	lo-	.	.	.	4e\	lo-	lo-	.	.	4ee\	lo-	lo-	.	.	.	.	.	.	.	.	.	.	.	.	.	.	.
8AA/J	.	.	8a/J	8e\J	.	.	.	.	.	.	.	.	.	.	.	.	.	.	.	.	.	.	.	.	.	.	.	.	.	.	.	.	.	.	.	.
!	!	!	!	!	!	!	!	!	!	!	!	!	!	!	!	!	!	!	!LO:SIC:s=4ff#\	!	!	!	!	!	!	!	!	!	!	!	!	!	!	!	!	!
8D\L	#	.	8a/L	8f#X\L	.	16ff#\LL	.	4d\	-cu-	-cu-	.	.	.	4f#X\	-cu-	-cu-	.	.	4ff#X\	-cu-	-cu-	.	.	.	2dd\	.	2ff#\	.	2dd\	.	2ff#\	.	2ddd\	.	2fff#\	.
.	.	.	.	.	.	16gg\	.	.	.	.	.	.	.	.	.	.	.	.	.	.	.	.	.	.	.	.	.	.	.	.	.	.	.	.	.	.
8D\	.	.	8a/	8f#X\	.	16ff#\	.	.	.	.	.	.	.	.	.	.	.	.	.	.	.	.	.	.	.	.	.	.	.	.	.	.	.	.	.	.
.	.	.	.	.	.	16ee\JJ	.	.	.	.	.	.	.	.	.	.	.	.	.	.	.	.	.	.	.	.	.	.	.	.	.	.	.	.	.	.
8D\	.	.	8a/	8f#X\	.	8dd\L	.	8D\	-tuſ	-tus	.	.	.	8f#\	-tus	-tus	.	.	8ff#\	-tuſ	-tus	.	.	.	.	.	.	.	.	.	.	.	.	.	.	.
8D\J	.	.	8a/J	8f#X\J	.	8ff#\J	.	8D\	eſt	est	.	.	.	8f#\	eſt	est	.	.	8ff#\	eſt	est	.	.	.	.	.	.	.	.	.	.	.	.	.	.	.
*	*	*	*custos:a	*custos:e	*	*	*	*	*	*	*	*	*	*	*	*	*	*	*	*	*	*	*	*	*	*	*	*	*	*	*	*	*	*	*	*
!	!	!	!LO:TX:b:rj:t=Vertatur:mod=	!	!	!	!	!	!	!	!	!	!	!	!	!	!	!	!	!	!	!	!	!	!	!	!	!	!	!	!	!	!	!	!	!
!LO:LB:g=original	!	!	!LO:PB:g=original	!	!	!	!	!	!	!	!	!	!	!	!	!	!	!	!	!	!	!	!	!	!	!	!	!	!	!	!	!	!	!	!	!
=31	=31	=31	=31	=31	=31	=31	=31	=31	=31	=31	=31	=31	=31	=31	=31	=31	=31	=31	=31	=31	=31	=31	=31	=31	=31	=31	=31	=31	=31	=31	=31	=31	=31	=31	=31	=31
8AA/L	.	.	16a/LL	16e\LL	.	8ee\L	.	4A\	per	per	.	.	1ryy	4e\	per	per	.	.	4ee\	p(er)	p(er)	.	.	1ryy	2a/	.	2ee\	.	2cc#\	.	2ee\	.	2ccc#\	.	4eee\	.
.	.	.	16a/	16e\	.	.	.	.	.	.	.	.	.	.	.	.	.	.	.	.	.	.	.	.	.	.	.	.	.	.	.	.	.	.	.	.
8AA/	.	.	16a/	16e\	.	8ee\	.	.	.	.	.	.	.	.	.	.	.	.	.	.	.	.	.	.	.	.	.	.	.	.	.	.	.	.	.	.
.	.	.	16a/	16e\	.	.	.	.	.	.	.	.	.	.	.	.	.	.	.	.	.	.	.	.	.	.	.	.	.	.	.	.	.	.	.	.
8AA/	.	.	16a/	16e\	.	8cc#\	.	4A\	pro-	Pro-	.	.	.	4e\	Pro-	Pro-	.	.	4ee\	Pro-	Pro-	.	.	.	.	.	.	.	.	.	.	.	.	.	4eee\	.
.	.	.	16a/	16e\	.	.	.	.	.	.	.	.	.	.	.	.	.	.	.	.	.	.	.	.	.	.	.	.	.	.	.	.	.	.	.	.
8AA/J	.	.	16a/	16e\	.	8a\J	.	.	.	.	.	.	.	.	.	.	.	.	.	.	.	.	.	.	.	.	.	.	.	.	.	.	.	.	.	.
.	.	.	16a/JJ	16e\JJ	.	.	.	.	.	.	.	.	.	.	.	.	.	.	.	.	.	.	.	.	.	.	.	.	.	.	.	.	.	.	.	.
*	*	*	*	*	*	*	*	*custos:D	*	*	*	*	*	*	*	*	*	*	*	*	*	*	*	*	*	*	*	*	*	*	*	*	*	*	*	*
!	!	!	!	!	!	!	!	!LO:PB:g=original	!	!	!	!	!	!	!	!	!	!	!LO:LB:g=original	!	!	!	!	!	!	!	!	!	!	!	!	!	!	!	!	!
!	!	!	!	!	!	!	!	!LO:TX:t=P:problem=custos umieszczony o oktawę niżej	!	!	!	!	!	!LO:SIC:s=4f#\	!	!	!	!	!	!	!	!	!	!	!	!	!	!	!	!	!	!	!	!	!	!
8D\L	#	.	16a/LL	16f#\LL	.	8dd\L	.	4d\	-phe-	-phe-	.	.	.	4f#X\	-phe-	-phe-	.	.	4ff#\	-phe-	-phe-	.	.	.	8d/L	.	8dd\L	.	2dd\	.	2ff#\	.	2ddd\	.	4ddd\	.
.	.	.	16a/	16f#\	.	.	.	.	.	.	.	.	.	.	.	.	.	.	.	.	.	.	.	.	.	.	.	.	.	.	.	.	.	.	.	.
8D\	.	.	16a/	16f#\	.	8ff#\J	.	.	.	.	.	.	.	.	.	.	.	.	.	.	.	.	.	.	8f#/J	.	8ff#\J	.	.	.	.	.	.	.	.	.
.	.	.	16a/	16f#\	.	.	.	.	.	.	.	.	.	.	.	.	.	.	.	.	.	.	.	.	.	.	.	.	.	.	.	.	.	.	.	.
8D\	.	.	16a/	16f#\	.	4aa\	.	4D\	-taſ	-tas,	.	.	.	4f#\	-tas	-tas,	.	.	4ff#\	-taſ	-tas,	.	.	.	4a/	.	4aa\	.	.	.	.	.	.	.	4fff#\	.
.	.	.	16a/	16f#\	.	.	.	.	.	.	.	.	.	.	.	.	.	.	.	.	.	.	.	.	.	.	.	.	.	.	.	.	.	.	.	.
8D\J	.	.	16a/	16f#\	.	.	.	.	.	.	.	.	.	.	.	.	.	.	.	.	.	.	.	.	.	.	.	.	.	.	.	.	.	.	.	.
.	.	.	16a/JJ	16f#\JJ	.	.	.	.	.	.	.	.	.	.	.	.	.	.	.	.	.	.	.	.	.	.	.	.	.	.	.	.	.	.	.	.
*	*	*	*v	*v	*	*	*	*	*	*	*	*	*	*	*	*	*	*	*	*	*	*	*	*	*	*	*	*	*	*	*	*	*	*	*	*
!	!	!	!	!	!	!	!	!	!	!	!	!	!	!	!	!	!	!	!	!	!	!	!	!	!	!	!	!	!	!	!	!LO:PB:g=original	!	!	!
=32	=32	=32	=32	=32	=32	=32	=32	=32	=32	=32	=32	=32	=32	=32	=32	=32	=32	=32	=32	=32	=32	=32	=32	=32	=32	=32	=32	=32	=32	=32	=32	=32	=32	=32	=32
*	*	*	*	*	*^	*	*	*	*	*	*	*	*	*	*	*	*	*	*	*	*	*	*	*	*	*	*	*	*	*	*	*	*	*	*
*	*	*	*	*	*	*	*	*	*	*	*	*	*	*	*ij	*ij	*	*	*	*	*	*	*	*	*	*	*	*	*	*	*	*	*	*	*	*
!	!	!	!	!	!LO:TX:t=P:problem=cała nuta na środku taktu	!	!	!	!	!	!	!	!	!	!	!	!	!	!	!	!	!	!	!	!	!	!	!	!	!	!	!	!	!	!	!
8AA/L	.	.	16a 16e/LL	.	8ee/L	1a	.	4A\	Qui	qui	.	.	1ryy	4e\	Qui	qui	.	.	4ee\	qui	qui	.	.	1ryy	2a/	.	2ee\	.	2cc#\	.	2ee\	.	2ccc#\	.	2eee\	.
.	.	.	16a 16e/	.	.	.	.	.	.	.	.	.	.	.	.	.	.	.	.	.	.	.	.	.	.	.	.	.	.	.	.	.	.	.	.	.
8AA/	.	.	16a 16e/	.	8ff#/J	.	.	.	.	.	.	.	.	.	.	.	.	.	.	.	.	.	.	.	.	.	.	.	.	.	.	.	.	.	.	.
.	.	.	16a 16e/	.	.	.	.	.	.	.	.	.	.	.	.	.	.	.	.	.	.	.	.	.	.	.	.	.	.	.	.	.	.	.	.	.
8AA/	.	.	16a 16e/	.	4gg/	.	.	4A\	lo-	lo-	.	.	.	4e\	lo-	lo-	.	.	4ee\	lo-	lo-	.	.	.	.	.	.	.	.	.	.	.	.	.	.	.
.	.	.	16a 16e/	.	.	.	.	.	.	.	.	.	.	.	.	.	.	.	.	.	.	.	.	.	.	.	.	.	.	.	.	.	.	.	.	.
8AA/J	.	.	16a 16e/	.	.	.	.	.	.	.	.	.	.	.	.	.	.	.	.	.	.	.	.	.	.	.	.	.	.	.	.	.	.	.	.	.
.	.	.	16a 16e/JJ	.	.	.	.	.	.	.	.	.	.	.	.	.	.	.	.	.	.	.	.	.	.	.	.	.	.	.	.	.	.	.	.	.
!	!	!	!LO:SIC:v:s=16a 16f#/LL	!	!	!	!	!	!	!	!	!	!	!LO:SIC:s=4f#\	!	!	!	!	!LO:TX:t=P:problem=8ff# poprawione na 4ff#	!	!	!	!	!	!	!	!	!	!	!	!	!	!	!	!	!
8D\L	#	.	16a 16e/LL	.	16ff#/LL	.	.	4d\	-cu-	-cu-	.	.	.	4f#X\	-cu-	-cu-	.	.	4ff#\	-cu-	-cu-	.	.	.	2dd\	.	2ff#\	.	2dd\	.	2ff#\	.	2ddd\	.	2fff#\	.
!	!	!	!LO:SIC:v:s=16a 16f#/	!	!	!	!	!	!	!	!	!	!	!	!	!	!	!	!	!	!	!	!	!	!	!	!	!	!	!	!	!	!	!	!	!
.	.	.	16a 16e/	.	16gg/	.	.	.	.	.	.	.	.	.	.	.	.	.	.	.	.	.	.	.	.	.	.	.	.	.	.	.	.	.	.	.
!	!	!	!LO:SIC:v:s=16a 16f#/	!	!	!	!	!	!	!	!	!	!	!	!	!	!	!	!	!	!	!	!	!	!	!	!	!	!	!	!	!	!	!	!	!
8D\	.	.	16a 16e/	.	16ff#/	.	.	.	.	.	.	.	.	.	.	.	.	.	.	.	.	.	.	.	.	.	.	.	.	.	.	.	.	.	.	.
!	!	!	!LO:SIC:v:s=16a 16f#/	!	!	!	!	!	!	!	!	!	!	!	!	!	!	!	!	!	!	!	!	!	!	!	!	!	!	!	!	!	!	!	!	!
.	.	.	16a 16e/	.	16ee/JJ	.	.	.	.	.	.	.	.	.	.	.	.	.	.	.	.	.	.	.	.	.	.	.	.	.	.	.	.	.	.	.
!	!	!	!LO:SIC:v:s=16a 16f#/	!	!	!	!	!	!	!	!	!	!	!	!	!	!	!	!	!	!	!	!	!	!	!	!	!	!	!	!	!	!	!	!	!
8D\	.	.	16a 16e/	.	8dd/L	.	.	8D\	-tuſ	-tus	.	.	.	8f#\	-tus	-tus	.	.	8ff#\	-tuſ	-tus	.	.	.	.	.	.	.	.	.	.	.	.	.	.	.
!	!	!	!LO:SIC:v:s=16a 16f#/	!	!	!	!	!	!	!	!	!	!	!	!	!	!	!	!	!	!	!	!	!	!	!	!	!	!	!	!	!	!	!	!	!
.	.	.	16a 16e/	.	.	.	.	.	.	.	.	.	.	.	.	.	.	.	.	.	.	.	.	.	.	.	.	.	.	.	.	.	.	.	.	.
!	!	!	!LO:SIC:v:s=16a 16f#/	!	!	!	!	!	!	!	!	!	!	!	!	!	!	!	!	!	!	!	!	!	!	!	!	!	!	!	!	!	!	!	!	!
8D\J	.	.	16a 16e/	.	8ff#/J	.	.	8D\	eſt	est	.	.	.	8f#\	eſt	est	.	.	8ff#\	eſt	est	.	.	.	.	.	.	.	.	.	.	.	.	.	.	.
!	!	!	!LO:SIC:v:s=16a 16f#/JJ	!	!	!	!	!	!	!	!	!	!	!	!	!	!	!	!	!	!	!	!	!	!	!	!	!	!	!	!	!	!	!	!	!
.	.	.	16a 16e/JJ	.	.	.	.	.	.	.	.	.	.	.	.	.	.	.	.	.	.	.	.	.	.	.	.	.	.	.	.	.	.	.	.	.
*	*	*	*	*	*v	*v	*	*	*	*	*	*	*	*	*	*	*	*	*	*	*	*	*	*	*	*	*	*	*	*	*	*	*	*	*	*
=33	=33	=33	=33	=33	=33	=33	=33	=33	=33	=33	=33	=33	=33	=33	=33	=33	=33	=33	=33	=33	=33	=33	=33	=33	=33	=33	=33	=33	=33	=33	=33	=33	=33	=33	=33
8AA/L	.	.	16a 16e/LL	.	8ee\L	.	4A\	p(er)	p(er)	.	.	1ryy	4e\	per	per	.	.	4ee\	p(er)	p(er)	.	.	1ryy	2a/	.	2ee\	.	2cc#\	.	2ee\	.	2ccc#\	.	2eee\	.
.	.	.	16a 16e/	.	.	.	.	.	.	.	.	.	.	.	.	.	.	.	.	.	.	.	.	.	.	.	.	.	.	.	.	.	.	.	.
8AA/	.	.	16a 16e/	.	8ee\	.	.	.	.	.	.	.	.	.	.	.	.	.	.	.	.	.	.	.	.	.	.	.	.	.	.	.	.	.	.
.	.	.	16a 16e/	.	.	.	.	.	.	.	.	.	.	.	.	.	.	.	.	.	.	.	.	.	.	.	.	.	.	.	.	.	.	.	.
8AA/	.	.	16a 16e/	.	8cc#\	.	4A\	Pro-	Pro-	.	.	.	4e\	Pro-	Pro-	.	.	4ee\	pro-	Pro-	.	.	.	.	.	.	.	.	.	.	.	.	.	.	.
.	.	.	16a 16e/	.	.	.	.	.	.	.	.	.	.	.	.	.	.	.	.	.	.	.	.	.	.	.	.	.	.	.	.	.	.	.	.
8AA/J	.	.	16a 16e/	.	8a\J	.	.	.	.	.	.	.	.	.	.	.	.	.	.	.	.	.	.	.	.	.	.	.	.	.	.	.	.	.	.
.	.	.	16a 16e/JJ	.	.	.	.	.	.	.	.	.	.	.	.	.	.	.	.	.	.	.	.	.	.	.	.	.	.	.	.	.	.	.	.
!	!	!	!	!	!LO:LB:g=original	!	!	!	!	!	!	!	!LO:SIC:s=4f#\	!	!	!	!	!	!	!	!	!	!	!	!	!	!	!	!	!	!	!	!	!	!
8D\L	#	.	16a 16f#/LL	.	8dd\L	.	4d\	-phe-	-phe-	.	.	.	4f#X\	-phe-	-phe-	.	.	4dd\	-phe-	-phe-	.	.	.	4f#/	.	8dd\L	.	8f#/L	.	8dd\L	.	8ddd\L	.	8ddd\L	.
.	.	.	16a 16f#/	.	.	.	.	.	.	.	.	.	.	.	.	.	.	.	.	.	.	.	.	.	.	.	.	.	.	.	.	.	.	.	.
8D\	.	.	16a 16f#/	.	8ff#\J	.	.	.	.	.	.	.	.	.	.	.	.	.	.	.	.	.	.	.	.	8ff#\J	.	8a/J	.	8ff#\J	.	8aa\J	.	8fff#\J	.
.	.	.	16a 16f#/	.	.	.	.	.	.	.	.	.	.	.	.	.	.	.	.	.	.	.	.	.	.	.	.	.	.	.	.	.	.	.	.
!	!	!	!	!	!	!	!	!	!	!	!	!	!	!	!	!	!	!	!	!	!	!	!	!	!	!	!	!	!	!	!	!LO:TX:t=P:problem=4r poprawiona na kreskę taktową	!	!	!
8D\	.	.	16a 16f#/	.	4dd\	.	4D\	-taſ	-tas.	.	.	.	4f#\	-tas	-tas.	.	.	4dd\	-taſ	-tas.	.	.	.	4f#/	.	4dd\	.	4f#/	.	4dd\	.	4ff#\	.	4ddd\	.
*	*	*	*	*	*	*	*	*	*	*	*	*	*	*Xij	*Xij	*	*	*	*	*	*	*	*	*	*	*	*	*	*	*	*	*	*	*	*
.	.	.	16a 16f#/	.	.	.	.	.	.	.	.	.	.	.	.	.	.	.	.	.	.	.	.	.	.	.	.	.	.	.	.	.	.	.	.
8D\J	.	.	16a 16f#/	.	.	.	.	.	.	.	.	.	.	.	.	.	.	.	.	.	.	.	.	.	.	.	.	.	.	.	.	.	.	.	.
.	.	.	16a 16f#/JJ	.	.	.	.	.	.	.	.	.	.	.	.	.	.	.	.	.	.	.	.	.	.	.	.	.	.	.	.	.	.	.	.
*Xtremolo	*	*	*Xtremolo	*	*	*	*	*	*	*	*	*	*custos:d	*	*	*	*	*	*	*	*	*	*	*	*	*	*	*	*	*	*	*	*	*X8va	*
!	!	!	!	!	!	!	!	!	!	!	!	!	!LO:LB:g=original	!	!	!	!	!	!	!	!	!	!	!	!	!	!	!	!	!	!	!	!	!LO:LB:g=original	!
=34	=34	=34	=34	=34	=34	=34	=34	=34	=34	=34	=34	=34	=34	=34	=34	=34	=34	=34	=34	=34	=34	=34	=34	=34	=34	=34	=34	=34	=34	=34	=34	=34	=34	=34	=34
!	!	!	!	!	!	!	!	!	!	!	!	!	!	!	!	!	!	!	!	!	!	!	!	!	!	!	!	!	!	!	!	!	!	!LO:TX:a:t=loco:mod=	!
4D\	.	.	2d/	.	2d/	.	2D\	et	Et	.	.	1ryy	2d\	Et	Et	.	.	2d/	et	Et	.	.	1ryy	2d/	.	2dd\	.	2d/	.	2d/	.	2dd\	.	2dd\	.
4D|\	.	.	.	.	.	.	.	.	.	.	.	.	.	.	.	.	.	.	.	.	.	.	.	.	.	.	.	.	.	.	.	.	.	.	.
4F#|\	.	.	4f#/	.	4f#/	.	4F#\	U-	u-	.	.	.	4f#\	U-	u-	.	.	4f#/	U-	u-	.	.	.	4f#/	.	4ff#\	.	4f#/	.	4f#/	.	4ff#\	.	4ff#\	.
4A|\	.	.	4a/	.	4a/	.	4A\	-nam	-nam	.	.	.	4a\	-nam	-nam	.	.	4a\	-nam	-nam	.	.	.	4a/	.	4aa\	.	4a/	.	4a/	.	4aa\	.	4aa\	.
=35	=35	=35	=35	=35	=35	=35	=35	=35	=35	=35	=35	=35	=35	=35	=35	=35	=35	=35	=35	=35	=35	=35	=35	=35	=35	=35	=35	=35	=35	=35	=35	=35	=35	=35	=35
4D\	.	.	4d/	.	4dd\	.	(4D\	San-	san-	.	.	1ryy	(4d\	San-	san-	.	.	(4dd\	San-	san-	.	.	1ryy	4d/	.	4dd\	.	4d/	.	4dd\	.	4dd\	.	4ddd\	.
4F#\	.	.	4f#/	.	4ff#\	.	4F#\)	.	.	.	.	.	4f#\)	.	.	.	.	4ff#\)	.	.	.	.	.	4f#/	.	4ff#\	.	4f#/	.	4ff#\	.	4ff#\	.	4fff#\	.
4A\	.	.	8a/L	.	8aa\L	.	4A\	-ctam	-ctam	.	.	.	4a\	-ctam	-ctam	.	.	4aa\	-ctam	-ctam,	.	.	.	4a/	.	4aa\	.	4a/	.	4aa\	.	4aa\	.	4aa\	.
.	.	.	8a/	.	8aa\	.	.	.	.	.	.	.	.	.	.	.	.	.	.	.	.	.	.	.	.	.	.	.	.	.	.	.	.	.	.
4r	.	.	8f#/	.	8ff#\	.	4r	.	.	.	.	.	4r	.	.	.	.	4r	.	.	.	.	.	4r	.	4r	.	4r	.	4r	.	4r	.	4r	.
.	.	.	8d/J	.	8dd\J	.	.	.	.	.	.	.	.	.	.	.	.	.	.	.	.	.	.	.	.	.	.	.	.	.	.	.	.	.	.
=36	=36	=36	=36	=36	=36	=36	=36	=36	=36	=36	=36	=36	=36	=36	=36	=36	=36	=36	=36	=36	=36	=36	=36	=36	=36	=36	=36	=36	=36	=36	=36	=36	=36	=36	=36
*	*	*	*	*	*	*	*	*	*	*	*	*	*	*	*	*	*	*	*	*	*	*	*	*	*	*	*	*	*	*	*	*	*	*8va	*
4r	.	.	4B/	.	4b\	.	4r	.	.	.	.	1ryy	4r	.	.	.	.	4r	.	.	.	.	1ryy	4r	.	4r	.	4r	.	4r	.	4r	.	4r	.
4G\	3	.	4b/	.	16aa\LL	.	4G\	Ca-	ca-	.	.	.	4b\	Ca-	ca-	.	.	4gg\	et	et	.	.	.	4gg\	.	4bb\	.	4gg\	.	4bb\	.	4bb\	.	4ggg\	.
.	.	.	.	.	16gg\	.	.	.	.	.	.	.	.	.	.	.	.	.	.	.	.	.	.	.	.	.	.	.	.	.	.	.	.	.	.
.	.	.	.	.	16ff#\	.	.	.	.	.	.	.	.	.	.	.	.	.	.	.	.	.	.	.	.	.	.	.	.	.	.	.	.	.	.
.	.	.	.	.	16gg\JJ	.	.	.	.	.	.	.	.	.	.	.	.	.	.	.	.	.	.	.	.	.	.	.	.	.	.	.	.	.	.
4A\	4	.	8a/L	.	8ff#\L	.	4A\	-tho-	-tho-	.	.	.	8a\L	-tho-	-tho-	.	.	8ff#\L	A-	a-	.	.	.	8ff#\L	.	8aa\L	.	8ff#\L	.	8aa\L	.	8aa\L	.	8fff#\L	.
.	.	.	8g/	.	8ee\	.	.	.	.	.	.	.	8g\J	.	.	.	.	8ee\J	.	.	.	.	.	8ee\	.	8gg\	.	8ee\	.	8gg\	.	8gg\	.	8eee\	.
4AA/	#	.	8f#/	.	8dd\	.	4AA/	-li-	-li-	.	.	.	8f#\L	-li-	-li-	.	.	8dd\L	-po-	-po-	.	.	.	8dd\	.	8ff#\	.	8dd\	.	8ff#\	.	8ff#\	.	8ddd\	.
.	.	.	8e/J	.	8cc#\J	.	.	.	.	.	.	.	8e\J	.	.	.	.	8cc#\J	.	.	.	.	.	8a\J	.	8ee\J	.	8cc#\J	.	8ee\J	.	8ee\J	.	8ccc#\J	.
=37	=37	=37	=37	=37	=37	=37	=37	=37	=37	=37	=37	=37	=37	=37	=37	=37	=37	=37	=37	=37	=37	=37	=37	=37	=37	=37	=37	=37	=37	=37	=37	=37	=37	=37	=37
4D\	.	.	4d/	.	4dd\	.	4D\	-cam	-cam	.	.	1ryy	4d\	-cam	-cam	.	.	4dd\	-ſto-	-sto-	.	.	1ryy	4d/	.	4dd\	.	4dd\	.	4dd\	.	4dd\	.	4ddd\	.
4F#|\	.	.	4f#/	.	16ff#\LL	.	4F#\	et	et	.	.	.	4f#\	et	et	.	.	4ff#\	-li-	-li-	.	.	.	4f#/	.	4ff#\	.	4f#/	.	4ff#\	.	4ff#\	.	4fff#\	.
.	.	.	.	.	16ee\	.	.	.	.	.	.	.	.	.	.	.	.	.	.	.	.	.	.	.	.	.	.	.	.	.	.	.	.	.	.
.	.	.	.	.	16ff#\	.	.	.	.	.	.	.	.	.	.	.	.	.	.	.	.	.	.	.	.	.	.	.	.	.	.	.	.	.	.
.	.	.	.	.	16gg\JJ	.	.	.	.	.	.	.	.	.	.	.	.	.	.	.	.	.	.	.	.	.	.	.	.	.	.	.	.	.	.
4A|\	.	.	8a/L	.	8aa\L	.	8A\	A-	a-	.	.	.	8a\	A-	a-	.	.	4aa\	-cam	-cam	.	.	.	4a/	.	4aa\	.	4a/	.	4aa\	.	4aa\	.	4aa/	.
.	.	.	8a/	.	8aa\	.	8A\	-po-	-po-	.	.	.	8a\	-po-	-po-	.	.	.	.	.	.	.	.	.	.	.	.	.	.	.	.	.	.	.	.
4r	.	.	8f#/	.	8ff#\	.	8F#\	-ſto-	-sto-	.	.	.	8f#\	-ſto-	-sto-	.	.	4r	.	.	.	.	.	4r	.	4r	.	4r	.	4r	.	4r	.	4r	.
.	.	.	8d/J	.	8dd\J	.	8D\	-li-	-li-	.	.	.	8d\	-li-	-li-	.	.	.	.	.	.	.	.	.	.	.	.	.	.	.	.	.	.	.	.
!	!	!	!	!	!	!	!LO:LB:g=original	!	!	!	!	!	!	!	!	!	!	!	!	!	!	!	!	!	!	!	!	!	!	!	!	!	!	!	!
=38	=38	=38	=38	=38	=38	=38	=38	=38	=38	=38	=38	=38	=38	=38	=38	=38	=38	=38	=38	=38	=38	=38	=38	=38	=38	=38	=38	=38	=38	=38	=38	=38	=38	=38	=38
4r	.	.	4B/	.	4b\	.	4BB/	-cam	-cam	.	.	1ryy	4B/	-cam	-cam	.	.	4r	.	.	.	.	1ryy	4r	.	4r	.	4r	.	4r	.	4r	.	4r	.
4G\	3	.	4b/	.	16aa\LL	.	4G\	Ec-	Ec-	.	.	.	4b\	Ec-	Ec-	.	.	4gg\	Ec-	Ec-	.	.	.	4gg\	.	4bb\	.	4gg\	.	4bb\	.	4bb\	.	4ggg\	.
.	.	.	.	.	16gg\	.	.	.	.	.	.	.	.	.	.	.	.	.	.	.	.	.	.	.	.	.	.	.	.	.	.	.	.	.	.
.	.	.	.	.	16ff#\	.	.	.	.	.	.	.	.	.	.	.	.	.	.	.	.	.	.	.	.	.	.	.	.	.	.	.	.	.	.
.	.	.	.	.	16gg\JJ	.	.	.	.	.	.	.	.	.	.	.	.	.	.	.	.	.	.	.	.	.	.	.	.	.	.	.	.	.	.
*	*	*	*	*	*	*	*	*	*	*	*	*	*	*	*	*	*	*	*	*	*	*	*	*custos:ee	*	*	*	*	*	*	*	*	*	*	*
!	!	!	!	!	!	!	!	!	!	!	!	!	!	!	!	!	!	!LO:PB:g=original	!	!	!	!	!	!LO:LB:g=original	!	!	!	!	!	!	!	!	!	!	!
4A\	4	.	8a/L	.	8ff#\L	.	4A\	-cle-	-cle-	.	.	.	8a\L	-cle-	-cle-	.	.	8ff#\L	-cle-	-cle-	.	.	.	8ff#\L	.	8aa\L	.	8ff#\L	.	8aa\L	.	8aa\L	.	8fff#\L	.
.	.	.	8g/	.	8ee\	.	.	.	.	.	.	.	8g\J	.	.	.	.	8ee\J	.	.	.	.	.	8ee\	.	8gg\	.	8ee\	.	8gg\	.	8gg\	.	8eee\	.
4AA/	#	.	8f#/	.	8dd\	.	4A\	-ſi-	-si-	.	.	.	8f#\L	-ſi-	-si-	.	.	8dd\L	-ſi-	-si-	.	.	.	8dd\	.	8ff#\	.	8dd\	.	8ff#\	.	8ff#\	.	8ddd\	.
.	.	.	8e/J	.	8cc#\J	.	.	.	.	.	.	.	8e\J	.	.	.	.	8cc#\J	.	.	.	.	.	8a\J	.	8ee\J	.	8cc#\J	.	8ee\J	.	8ee\J	.	8ccc#\J	.
*	*	*	*	*	*	*	*	*	*	*	*	*	*custos:f	*	*	*	*	*	*	*	*	*	*	*	*	*	*	*	*	*	*	*	*	*	*
!	!	!	!	!	!	!	!	!	!	!	!	!	!LO:LB:g=original	!	!	!	!	!	!	!	!	!	!	!	!	!LO:LB:g=original	!	!	!	!LO:LB:g=original	!	!	!	!	!
=39	=39	=39	=39	=39	=39	=39	=39	=39	=39	=39	=39	=39	=39	=39	=39	=39	=39	=39	=39	=39	=39	=39	=39	=39	=39	=39	=39	=39	=39	=39	=39	=39	=39	=39	=39
*tremolo	*	*	*tremolo	*	*	*	*	*	*	*	*	*	*	*	*	*	*	*	*	*	*	*	*	*	*	*	*	*	*	*	*	*	*	*	*
8D\L	.	.	16a 16f#/LL	.	8dd\L	.	4d\	-am	-am.	.	.	1ryy	4f#\	-am	-am.	.	.	4dd\	-am	-am.	.	.	1ryy	4f#/	.	4dd\	.	1dd	.	2dd\	.	1ff#	.	1ddd	.
.	.	.	16a 16f#/	.	.	.	.	.	.	.	.	.	.	.	.	.	.	.	.	.	.	.	.	.	.	.	.	.	.	.	.	.	.	.	.
8D\	.	.	16a 16f#/	.	8ff#\J	.	.	.	.	.	.	.	.	.	.	.	.	.	.	.	.	.	.	.	.	.	.	.	.	.	.	.	.	.	.
.	.	.	16a 16f#/	.	.	.	.	.	.	.	.	.	.	.	.	.	.	.	.	.	.	.	.	.	.	.	.	.	.	.	.	.	.	.	.
8D\	.	.	16a 16f#/	.	4.aa\	.	4D\	Con-	Con-	.	.	.	4f#\	con-	Con-	.	.	4dd\	Con-	Con-	.	.	.	8f#/L	.	8dd\L	.	.	.	.	.	.	.	.	.
.	.	.	16a 16f#/	.	.	.	.	.	.	.	.	.	.	.	.	.	.	.	.	.	.	.	.	.	.	.	.	.	.	.	.	.	.	.	.
8D\J	.	.	16a 16f#/	.	.	.	.	.	.	.	.	.	.	.	.	.	.	.	.	.	.	.	.	8f#/J	.	8dd\J	.	.	.	.	.	.	.	.	.
.	.	.	16a 16f#/JJ	.	.	.	.	.	.	.	.	.	.	.	.	.	.	.	.	.	.	.	.	.	.	.	.	.	.	.	.	.	.	.	.
8D\L	.	.	16a 16f#/LL	.	.	.	4D\	-fi-	-fi-	.	.	.	4f#\	-fi-	-fi-	.	.	4dd\	-fi-	-fi-	.	.	.	4f#/	.	4dd\	.	.	.	2ff#\	.	.	.	.	.
.	.	.	16a 16f#/	.	.	.	.	.	.	.	.	.	.	.	.	.	.	.	.	.	.	.	.	.	.	.	.	.	.	.	.	.	.	.	.
8D\	.	.	16a 16f#/	.	16bb\LL	.	.	.	.	.	.	.	.	.	.	.	.	.	.	.	.	.	.	.	.	.	.	.	.	.	.	.	.	.	.
.	.	.	16a 16f#/	.	16aa\JJ	.	.	.	.	.	.	.	.	.	.	.	.	.	.	.	.	.	.	.	.	.	.	.	.	.	.	.	.	.	.
8D\	.	.	16a 16f#/	.	16gg\LL	.	8D\	-te-	-te-	.	.	.	8f#\	-te-	-te-	.	.	8dd\	-te-	-te-	.	.	.	4f#/	.	4dd\	.	.	.	.	.	.	.	.	.
.	.	.	16a 16f#/	.	16ff#\	.	.	.	.	.	.	.	.	.	.	.	.	.	.	.	.	.	.	.	.	.	.	.	.	.	.	.	.	.	.
8D\J	.	.	16a 16f#/	.	16ee\	.	8D\	-or	-or	.	.	.	8f#\	-or	-or,	.	.	8dd\	-or	-or	.	.	.	.	.	.	.	.	.	.	.	.	.	.	.
.	.	.	16a 16f#/JJ	.	16dd\JJ	.	.	.	.	.	.	.	.	.	.	.	.	.	.	.	.	.	.	.	.	.	.	.	.	.	.	.	.	.	.
=40	=40	=40	=40	=40	=40	=40	=40	=40	=40	=40	=40	=40	=40	=40	=40	=40	=40	=40	=40	=40	=40	=40	=40	=40	=40	=40	=40	=40	=40	=40	=40	=40	=40	=40	=40
8C#/L	6	.	16a 16e/LL	.	8a\L	.	2C#/	U-	u-	.	.	1ryy	2.g\	et	et	.	.	4ee\	U-	u-	.	.	1ryy	1a	.	1ee	.	1a	.	1gg	.	1gg	.	1eee	.
.	.	.	16a 16e/	.	.	.	.	.	.	.	.	.	.	.	.	.	.	.	.	.	.	.	.	.	.	.	.	.	.	.	.	.	.	.	.
8C#/	.	.	16a 16e/	.	8cc#\J	.	.	.	.	.	.	.	.	.	.	.	.	.	.	.	.	.	.	.	.	.	.	.	.	.	.	.	.	.	.
.	.	.	16a 16e/	.	.	.	.	.	.	.	.	.	.	.	.	.	.	.	.	.	.	.	.	.	.	.	.	.	.	.	.	.	.	.	.
8C#/	.	.	16a 16e/	.	4.ee\	.	.	.	.	.	.	.	.	.	.	.	.	8ee\	-num	-num	.	.	.	.	.	.	.	.	.	.	.	.	.	.	.
.	.	.	16a 16e/	.	.	.	.	.	.	.	.	.	.	.	.	.	.	.	.	.	.	.	.	.	.	.	.	.	.	.	.	.	.	.	.
!	!	!	!	!	!	!	!	!	!	!	!	!	!	!	!	!	!	!	!LO:MO:mod=Bap-	!	!	!	!	!	!	!	!	!	!	!	!	!	!	!	!
8C#/J	.	.	16a 16e/	.	.	.	.	.	.	.	.	.	.	.	.	.	.	8ee\	Bab-	bap-	.	.	.	.	.	.	.	.	.	.	.	.	.	.	.
.	.	.	16a 16e/JJ	.	.	.	.	.	.	.	.	.	.	.	.	.	.	.	.	.	.	.	.	.	.	.	.	.	.	.	.	.	.	.	.
8C#/L	.	.	16a 16e/LL	.	.	.	4C#/	-num	-num	.	.	.	.	.	.	.	.	4ee\	-tiſ-	-tis-	.	.	.	.	.	.	.	.	.	.	.	.	.	.	.
.	.	.	16a 16e/	.	.	.	.	.	.	.	.	.	.	.	.	.	.	.	.	.	.	.	.	.	.	.	.	.	.	.	.	.	.	.	.
*	*	*	*	*	*custos:ff	*	*	*	*	*	*	*	*	*	*	*	*	*	*	*	*	*	*	*	*	*	*	*	*	*	*	*	*	*	*
!	!	!	!	!	!LO:LB:g=original	!	!	!	!	!	!	!	!	!	!	!	!	!	!	!	!	!	!	!	!	!	!	!	!	!	!	!	!	!	!
8C#/	.	.	16a 16e/	.	16ff#\LL	.	.	.	.	.	.	.	.	.	.	.	.	.	.	.	.	.	.	.	.	.	.	.	.	.	.	.	.	.	.
.	.	.	16a 16e/	.	16ee\JJ	.	.	.	.	.	.	.	.	.	.	.	.	.	.	.	.	.	.	.	.	.	.	.	.	.	.	.	.	.	.
!	!	!	!	!	!	!	!	!LO:MO:mod=Bap-	!	!	!	!	!	!	!	!	!	!	!	!	!	!	!	!	!	!	!	!	!	!	!	!	!	!	!
8C#/	.	.	16a 16e/	.	16dd\LL	.	4C#/	Bab-	bap-	.	.	.	4g\	ex-	ex-	.	.	4ee\	-ma	-ma	.	.	.	.	.	.	.	.	.	.	.	.	.	.	.
.	.	.	16a 16e/	.	16cc#\	.	.	.	.	.	.	.	.	.	.	.	.	.	.	.	.	.	.	.	.	.	.	.	.	.	.	.	.	.	.
8C#/J	.	.	16a 16e/	.	16b\	.	.	.	.	.	.	.	.	.	.	.	.	.	.	.	.	.	.	.	.	.	.	.	.	.	.	.	.	.	.
.	.	.	16a 16e/JJ	.	16a\JJ	.	.	.	.	.	.	.	.	.	.	.	.	.	.	.	.	.	.	.	.	.	.	.	.	.	.	.	.	.	.
=41	=41	=41	=41	=41	=41	=41	=41	=41	=41	=41	=41	=41	=41	=41	=41	=41	=41	=41	=41	=41	=41	=41	=41	=41	=41	=41	=41	=41	=41	=41	=41	=41	=41	=41	=41
8D\L	.	.	16a 16f#/LL	.	8dd\L	.	4D\	-tiſ-	-tis-	.	.	1ryy	4f#\	-pec-	-pec-	.	.	4dd\	in	in	.	.	1ryy	1dd	.	1ff#	.	1a	.	1ff#	.	1ff#	.	1ddd	.
.	.	.	16a 16f#/	.	.	.	.	.	.	.	.	.	.	.	.	.	.	.	.	.	.	.	.	.	.	.	.	.	.	.	.	.	.	.	.
8D\	.	.	16a 16f#/	.	8ff#\J	.	.	.	.	.	.	.	.	.	.	.	.	.	.	.	.	.	.	.	.	.	.	.	.	.	.	.	.	.	.
.	.	.	16a 16f#/	.	.	.	.	.	.	.	.	.	.	.	.	.	.	.	.	.	.	.	.	.	.	.	.	.	.	.	.	.	.	.	.
8D\	.	.	16a 16f#/	.	4.aa\	.	4D\	-ma	-ma	.	.	.	4f#\	-to	-to	.	.	4dd\	re-	re-	.	.	.	.	.	.	.	.	.	.	.	.	.	.	.
.	.	.	16a 16f#/	.	.	.	.	.	.	.	.	.	.	.	.	.	.	.	.	.	.	.	.	.	.	.	.	.	.	.	.	.	.	.	.
8D\J	.	.	16a 16f#/	.	.	.	.	.	.	.	.	.	.	.	.	.	.	.	.	.	.	.	.	.	.	.	.	.	.	.	.	.	.	.	.
.	.	.	16a 16f#/JJ	.	.	.	.	.	.	.	.	.	.	.	.	.	.	.	.	.	.	.	.	.	.	.	.	.	.	.	.	.	.	.	.
8D\L	.	.	16a 16f#/LL	.	.	.	4D\	in	in	.	.	.	4f#\	re-	re-	.	.	4dd\	-miſ-	-mis-	.	.	.	.	.	.	.	.	.	.	.	.	.	.	.
.	.	.	16a 16f#/	.	.	.	.	.	.	.	.	.	.	.	.	.	.	.	.	.	.	.	.	.	.	.	.	.	.	.	.	.	.	.	.
8D\	.	.	16a 16f#/	.	16bb\LL	.	.	.	.	.	.	.	.	.	.	.	.	.	.	.	.	.	.	.	.	.	.	.	.	.	.	.	.	.	.
.	.	.	16a 16f#/	.	16aa\JJ	.	.	.	.	.	.	.	.	.	.	.	.	.	.	.	.	.	.	.	.	.	.	.	.	.	.	.	.	.	.
8D\	.	.	16a 16f#/	.	16gg\LL	.	4D\	re-	re-	.	.	.	4f#\	-ſur-	-sur-	.	.	4dd\	-si-	-si-	.	.	.	.	.	.	.	.	.	.	.	.	.	.	.
.	.	.	16a 16f#/	.	16ff#\	.	.	.	.	.	.	.	.	.	.	.	.	.	.	.	.	.	.	.	.	.	.	.	.	.	.	.	.	.	.
8D\J	.	.	16a 16f#/	.	16ee\	.	.	.	.	.	.	.	.	.	.	.	.	.	.	.	.	.	.	.	.	.	.	.	.	.	.	.	.	.	.
.	.	.	16a 16f#/JJ	.	16dd\JJ	.	.	.	.	.	.	.	.	.	.	.	.	.	.	.	.	.	.	.	.	.	.	.	.	.	.	.	.	.	.
*custos:C	*	*	*	*	*	*	*	*	*	*	*	*	*	*	*	*	*	*	*	*	*	*	*	*	*	*	*	*	*	*	*	*	*	*	*
!LO:PB:g=original	!	!	!	!	!	!	!	!	!	!	!	!	!	!	!	!	!	!	!	!	!	!	!	!	!	!	!	!LO:LB:g=original	!	!	!	!LO:LB:g=original	!	!	!
=42	=42	=42	=42	=42	=42	=42	=42	=42	=42	=42	=42	=42	=42	=42	=42	=42	=42	=42	=42	=42	=42	=42	=42	=42	=42	=42	=42	=42-	=42	=42	=42	=42	=42	=42	=42
8C#/L	.	.	16a 16e/LL	.	8a\L	.	4C#/	-miſ-	-mis-	.	.	1ryy	4g\	-re-	-re-	.	.	2ee\	-o-	-o-	.	.	1ryy	1a	.	1ee	.	1a	.	1gg	.	1gg	.	1eee	.
.	.	.	16a 16e/	.	.	.	.	.	.	.	.	.	.	.	.	.	.	.	.	.	.	.	.	.	.	.	.	.	.	.	.	.	.	.	.
8C#/	.	.	16a 16e/	.	8cc#\J	.	.	.	.	.	.	.	.	.	.	.	.	.	.	.	.	.	.	.	.	.	.	.	.	.	.	.	.	.	.
.	.	.	16a 16e/	.	.	.	.	.	.	.	.	.	.	.	.	.	.	.	.	.	.	.	.	.	.	.	.	.	.	.	.	.	.	.	.
8C#/	.	.	16a 16e/	.	4.ee\	.	4C#/	-si-	-si-	.	.	.	4g\	-cti-	-cti-	.	.	.	.	.	.	.	.	.	.	.	.	.	.	.	.	.	.	.	.
.	.	.	16a 16e/	.	.	.	.	.	.	.	.	.	.	.	.	.	.	.	.	.	.	.	.	.	.	.	.	.	.	.	.	.	.	.	.
8C#/J	.	.	16a 16e/	.	.	.	.	.	.	.	.	.	.	.	.	.	.	.	.	.	.	.	.	.	.	.	.	.	.	.	.	.	.	.	.
.	.	.	16a 16e/JJ	.	.	.	.	.	.	.	.	.	.	.	.	.	.	.	.	.	.	.	.	.	.	.	.	.	.	.	.	.	.	.	.
8C#/L	.	.	16a 16e/LL	.	.	.	4C#/	-o-	-o-	.	.	.	4g\	-o-	-o-	.	.	2ee\	-nem	-nem	.	.	.	.	.	.	.	.	.	.	.	.	.	.	.
.	.	.	16a 16e/	.	.	.	.	.	.	.	.	.	.	.	.	.	.	.	.	.	.	.	.	.	.	.	.	.	.	.	.	.	.	.	.
8C#/	.	.	16a 16e/	.	16ff#\LL	.	.	.	.	.	.	.	.	.	.	.	.	.	.	.	.	.	.	.	.	.	.	.	.	.	.	.	.	.	.
.	.	.	16a 16e/	.	16ee\JJ	.	.	.	.	.	.	.	.	.	.	.	.	.	.	.	.	.	.	.	.	.	.	.	.	.	.	.	.	.	.
8C#/	.	.	16a 16e/	.	16dd\LL	.	4C#/	-nem	-nem	.	.	.	4g\	-nem	-nem	.	.	.	.	.	.	.	.	.	.	.	.	.	.	.	.	.	.	.	.
.	.	.	16a 16e/	.	16cc#\	.	.	.	.	.	.	.	.	.	.	.	.	.	.	.	.	.	.	.	.	.	.	.	.	.	.	.	.	.	.
8C#/J	.	.	16a 16e/	.	16b\	.	.	.	.	.	.	.	.	.	.	.	.	.	.	.	.	.	.	.	.	.	.	.	.	.	.	.	.	.	.
.	.	.	16a 16e/JJ	.	16a\JJ	.	.	.	.	.	.	.	.	.	.	.	.	.	.	.	.	.	.	.	.	.	.	.	.	.	.	.	.	.	.
=43	=43	=43	=43	=43	=43	=43	=43	=43	=43	=43	=43	=43	=43	=43	=43	=43	=43	=43	=43	=43	=43	=43	=43	=43	=43	=43	=43	=43	=43	=43	=43	=43	=43	=43	=43
8D/L	.	.	16a 16f#/LL	.	4dd 4d/	.	2.D\	pec-	pec-	.	.	1ryy	2.f#\	mor-	mor-	.	.	2.ff#\	pec-	pec-	.	.	1ryy	2dd\	.	2ff#\	.	2.a/	.	2.ff#\	.	2.ff#\	.	2.fff#\	.
.	.	.	16a 16f#/	.	.	.	.	.	.	.	.	.	.	.	.	.	.	.	.	.	.	.	.	.	.	.	.	.	.	.	.	.	.	.	.
8D/	.	.	16a 16f#/	.	.	.	.	.	.	.	.	.	.	.	.	.	.	.	.	.	.	.	.	.	.	.	.	.	.	.	.	.	.	.	.
.	.	.	16a 16f#/	.	.	.	.	.	.	.	.	.	.	.	.	.	.	.	.	.	.	.	.	.	.	.	.	.	.	.	.	.	.	.	.
8D/	.	.	16a 16f#/	.	16dd\LL	.	.	.	.	.	.	.	.	.	.	.	.	.	.	.	.	.	.	.	.	.	.	.	.	.	.	.	.	.	.
.	.	.	16a 16f#/	.	16cc#\	.	.	.	.	.	.	.	.	.	.	.	.	.	.	.	.	.	.	.	.	.	.	.	.	.	.	.	.	.	.
8D/J	.	.	16a 16f#/	.	16dd\	.	.	.	.	.	.	.	.	.	.	.	.	.	.	.	.	.	.	.	.	.	.	.	.	.	.	.	.	.	.
.	.	.	16a 16f#/JJ	.	16ee\JJ	.	.	.	.	.	.	.	.	.	.	.	.	.	.	.	.	.	.	.	.	.	.	.	.	.	.	.	.	.	.
8BB/L	.	.	16dd\LL	.	4ff#\	.	.	.	.	.	.	.	.	.	.	.	.	.	.	.	.	.	.	4dd\	.	4ff#\	.	.	.	.	.	.	.	.	.
.	.	.	16dd\	.	.	.	.	.	.	.	.	.	.	.	.	.	.	.	.	.	.	.	.	.	.	.	.	.	.	.	.	.	.	.	.
8BB/	.	.	16dd\	.	.	.	.	.	.	.	.	.	.	.	.	.	.	.	.	.	.	.	.	.	.	.	.	.	.	.	.	.	.	.	.
.	.	.	16dd\	.	.	.	.	.	.	.	.	.	.	.	.	.	.	.	.	.	.	.	.	.	.	.	.	.	.	.	.	.	.	.	.
8BB/	.	.	16dd\	.	16ff#\LL	.	4BB/	-ca-	-ca-	.	.	.	4g#X\	-tu-	-tu-	.	.	4dd\	-ca-	-ca-	.	.	.	4ee\	.	4ee\	.	4dd\	.	4gg#X\	.	4gg#X\	.	4ddd\	.
.	.	.	16dd\	.	16ee\	.	.	.	.	.	.	.	.	.	.	.	.	.	.	.	.	.	.	.	.	.	.	.	.	.	.	.	.	.	.
8BB/J	.	.	16dd\	.	16ff#\	.	.	.	.	.	.	.	.	.	.	.	.	.	.	.	.	.	.	.	.	.	.	.	.	.	.	.	.	.	.
.	.	.	16dd\JJ	.	16gg#X\JJ	.	.	.	.	.	.	.	.	.	.	.	.	.	.	.	.	.	.	.	.	.	.	.	.	.	.	.	.	.	.
*Xtremolo	*	*	*Xtremolo	*	*	*	*	*	*	*	*	*	*	*	*	*	*	*	*	*	*	*	*	*	*	*	*	*	*	*	*	*	*	*	*
!	!	!	!LO:LB:g=original	!	!	!	!	!	!	!	!	!	!	!	!	!	!	!	!	!	!	!	!	!	!	!	!	!	!	!	!	!	!	!	!
=44	=44	=44	=44	=44	=44	=44	=44	=44	=44	=44	=44	=44	=44	=44	=44	=44	=44	=44	=44	=44	=44	=44	=44	=44	=44	=44	=44	=44	=44	=44	=44	=44	=44	=44	=44
4AA/	.	.	4cc#\	.	4aa\	.	2AA/	-to-	-to-	.	.	1ryy	2a\	-o-	-o-	.	.	2cc#\	-to-	-to-	.	.	1ryy	4a/	.	4ee\	.	4cc#\	.	4aa\	.	4aa\	.	4ccc#\	.
4AA/	.	.	4a/	.	4aa 4a\	.	.	.	.	.	.	.	.	.	.	.	.	.	.	.	.	.	.	4a/	.	4ee\	.	4cc#\	.	4aa\	.	8aa\L	.	8aa\L	.
.	.	.	.	.	.	.	.	.	.	.	.	.	.	.	.	.	.	.	.	.	.	.	.	.	.	.	.	.	.	.	.	8aa\J	.	8aa\J	.
4AA/	.	.	4a/	.	4aa 4a\	.	4AA/	-rum	-rum.	.	.	.	4a\	-rum	-rum.	.	.	4cc#\	-rum	-rum.	.	.	.	4a/	.	4ee\	.	4cc#\	.	4aa\	.	4aa\	.	4aa\	.
!	!	!	!	!	!	!	!	!	!	!	!	!	!	!	!	!	!	!LO:LB:g=original	!	!	!	!	!	!	!	!	!	!	!	!	!	!	!	!	!
16D\LL	.	.	4r	.	4r	.	4r	.	.	.	.	.	4r	.	.	.	.	4r	.	.	.	.	.	4r	.	4r	.	4r	.	4r	.	4r	.	4r	.
16E\	.	.	.	.	.	.	.	.	.	.	.	.	.	.	.	.	.	.	.	.	.	.	.	.	.	.	.	.	.	.	.	.	.	.	.
16F#\	.	.	.	.	.	.	.	.	.	.	.	.	.	.	.	.	.	.	.	.	.	.	.	.	.	.	.	.	.	.	.	.	.	.	.
16G\JJ	.	.	.	.	.	.	.	.	.	.	.	.	.	.	.	.	.	.	.	.	.	.	.	.	.	.	.	.	.	.	.	.	.	.	.
*	*	*	*	*	*	*	*	*	*	*	*	*	*custos:a	*	*	*	*	*	*	*	*	*	*	*	*	*	*	*	*	*	*	*	*	*	*
!	!	!	!	!	!	!	!	!	!	!	!	!	!LO:LB:g=original	!	!	!	!	!	!	!	!	!	!	!	!	!	!	!	!	!	!	!	!	!	!
=45	=45	=45	=45	=45	=45	=45	=45	=45	=45	=45	=45	=45	=45	=45	=45	=45	=45	=45	=45	=45	=45	=45	=45	=45	=45	=45	=45	=45	=45	=45	=45	=45	=45	=45	=45
2A|\	.	.	2a/	.	2aa\	.	2A\	et	Et	.	.	1ryy	2a\	et	Et	.	.	2aa\	et	Et	.	.	1ryy	2a/	.	2aa\	.	2a/	.	2aa\	.	2aa\	.	2aa\	.
*tremolo	*	*	*	*	*	*	*	*	*	*	*	*	*	*	*	*	*	*	*	*	*	*	*	*	*	*	*	*	*	*	*	*	*	*	*
8F#|\L	.	.	2f#/	.	2ff#\	.	2F#\	vi-	vi-	.	.	.	2f#\	Vi-	vi-	.	.	2ff#\	Vi-	vi-	.	.	.	2f#/	.	2ff#\	.	2f#/	.	2ff#\	.	2ff#\	.	2fff#\	.
8F#|\	.	.	.	.	.	.	.	.	.	.	.	.	.	.	.	.	.	.	.	.	.	.	.	.	.	.	.	.	.	.	.	.	.	.	.
8F#|\	.	.	.	.	.	.	.	.	.	.	.	.	.	.	.	.	.	.	.	.	.	.	.	.	.	.	.	.	.	.	.	.	.	.	.
8F#|\J	.	.	.	.	.	.	.	.	.	.	.	.	.	.	.	.	.	.	.	.	.	.	.	.	.	.	.	.	.	.	.	.	.	.	.
*Xtremolo	*	*	*	*	*	*	*	*	*	*	*	*	*	*	*	*	*	*	*	*	*	*	*	*	*	*	*	*	*	*	*	*	*	*	*
!	!	!	!	!	!	!	!LO:LB:g=original	!	!	!	!	!	!	!	!	!	!	!	!	!	!	!	!	!	!	!	!	!	!	!	!	!	!	!	!
=46	=46	=46	=46	=46	=46	=46	=46	=46	=46	=46	=46	=46	=46	=46	=46	=46	=46	=46	=46	=46	=46	=46	=46	=46	=46	=46	=46	=46	=46	=46	=46	=46	=46	=46	=46
2D\	.	.	2d/	.	2dd\	.	2D\	tam	tam	.	.	1ryy	2d\	-tam	-tam	.	.	2dd\	-tam	-tam	.	.	1ryy	2d/	.	2dd\	.	2d/	.	2dd\	.	2dd\	.	2ddd\	.
2AA/	.	.	2A/	.	2a\	.	2AA/	Ven-	ven-	.	.	.	2A/	Ven-	ven-	.	.	2a\	ven-	ven-	.	.	.	2A/	.	2a/	.	2a/	.	2a/	.	2aa\	.	2aa\	.
*	*	*	*	*	*	*	*	*	*	*	*	*	*	*	*	*	*	*	*	*	*	*	*	*	*	*	*	*	*	*	*	*	*	*=	*
!	!	!	!	!	!	!	!	!	!	!	!	!	!	!	!	!	!	!	!	!	!	!	!	!	!	!	!	!	!	!	!	!	!	!LO:LB:g=original	!
=47	=47	=47	=47	=47	=47	=47	=47	=47	=47	=47	=47	=47	=47	=47	=47	=47	=47	=47	=47	=47	=47	=47	=47	=47	=47	=47	=47	=47	=47	=47	=47	=47	=47	=47	=47
*	*	*	*	*	*	*	*	*	*	*	*	*	*	*	*	*	*	*	*	*	*	*	*	*	*	*	*	*	*	*	*	*	*	*=	*
*	*	*	*^	*	*	*	*	*	*	*	*	*	*	*	*	*	*	*	*	*	*	*	*	*	*	*	*	*	*	*	*	*	*	*	*
!LO:MO:mod=!LO&colon;TX&colon;a&colon;t=pleno	!	!	!	!	!	!	!	!	!	!	!	!	!	!	!	!	!	!	!	!	!	!	!	!	!	!	!	!	!	!	!	!	!	!	!	!
!LO:TX:a:rj:t=Pleno	!	!	!	!	!	!	!	!	!	!	!	!	!	!	!	!	!	!	!	!	!	!	!	!	!	!	!	!	!	!	!	!	!	!	!	!
1A [>1D 1DD	.	.	2a/	2f#\	.	8dd\L	.	2D\	-tu-	-tu-	.	.	1ryy	2f#\	-tu-	-tu-	.	.	2dd\	-tu-	-tu-	.	.	1ryy	1d	.	1dd	.	1ff#	.	1aa	.	1aa	.	1ddd	.
.	.	.	.	.	.	16ee\L	.	.	.	.	.	.	.	.	.	.	.	.	.	.	.	.	.	.	.	.	.	.	.	.	.	.	.	.	.	.
.	.	.	.	.	.	16ff#\JJ	.	.	.	.	.	.	.	.	.	.	.	.	.	.	.	.	.	.	.	.	.	.	.	.	.	.	.	.	.	.
.	.	.	.	.	.	4dd\	.	.	.	.	.	.	.	.	.	.	.	.	.	.	.	.	.	.	.	.	.	.	.	.	.	.	.	.	.	.
!	!	!	!	!	!	!LO:LB:g=original	!	!	!	!	!	!	!	!	!	!	!	!	!	!	!	!	!	!	!	!	!	!	!	!	!	!	!	!	!	!
.	.	.	2a/	2f#\	.	16dd\LL	.	2D\	-ri	-ri	.	.	.	2f#\	-ri	-ri	.	.	2dd\	-ri	-ri	.	.	.	.	.	.	.	.	.	.	.	.	.	.	.
.	.	.	.	.	.	16ee\	.	.	.	.	.	.	.	.	.	.	.	.	.	.	.	.	.	.	.	.	.	.	.	.	.	.	.	.	.	.
.	.	.	.	.	.	16ff#\	.	.	.	.	.	.	.	.	.	.	.	.	.	.	.	.	.	.	.	.	.	.	.	.	.	.	.	.	.	.
.	.	.	.	.	.	16gg\JJ	.	.	.	.	.	.	.	.	.	.	.	.	.	.	.	.	.	.	.	.	.	.	.	.	.	.	.	.	.	.
.	.	.	.	.	.	8aa\L	.	.	.	.	.	.	.	.	.	.	.	.	.	.	.	.	.	.	.	.	.	.	.	.	.	.	.	.	.	.
.	.	.	.	.	.	8aa\J	.	.	.	.	.	.	.	.	.	.	.	.	.	.	.	.	.	.	.	.	.	.	.	.	.	.	.	.	.	.
=48	=48	=48	=48	=48	=48	=48	=48	=48	=48	=48	=48	=48	=48	=48	=48	=48	=48	=48	=48	=48	=48	=48	=48	=48	=48	=48	=48	=48	=48	=48	=48	=48	=48	=48	=48	=48
!LO:MO:mod=1A 1D_< 1DD	!	!	!	!	!	!	!	!	!	!	!	!	!	!	!	!	!	!	!	!	!	!	!	!	!	!	!	!	!	!	!	!	!	!	!	!
1A 1D_> 1DD	.	.	2a/	2f#\	.	8ee\L	.	2D\	Sae-	sae-	.	.	1ryy	2f#\	Sae-	sae-	.	.	2dd\	Sae-	sae-	.	.	1ryy	1dd	.	1ff#	.	1ff#	.	1aa	.	1aa	.	1ddd	.
.	.	.	.	.	.	8ff#\J	.	.	.	.	.	.	.	.	.	.	.	.	.	.	.	.	.	.	.	.	.	.	.	.	.	.	.	.	.	.
.	.	.	.	.	.	16dd\LL	.	.	.	.	.	.	.	.	.	.	.	.	.	.	.	.	.	.	.	.	.	.	.	.	.	.	.	.	.	.
.	.	.	.	.	.	16cc#\	.	.	.	.	.	.	.	.	.	.	.	.	.	.	.	.	.	.	.	.	.	.	.	.	.	.	.	.	.	.
.	.	.	.	.	.	16b\	.	.	.	.	.	.	.	.	.	.	.	.	.	.	.	.	.	.	.	.	.	.	.	.	.	.	.	.	.	.
.	.	.	.	.	.	16a\JJ	.	.	.	.	.	.	.	.	.	.	.	.	.	.	.	.	.	.	.	.	.	.	.	.	.	.	.	.	.	.
.	.	.	2a/	2f#\	.	16dd\LL	.	4D\	-cu-	-cu-	.	.	.	4f#\	-cu-	-cu-	.	.	4dd\	-cu-	-cu-	.	.	.	.	.	.	.	.	.	.	.	.	.	.	.
.	.	.	.	.	.	16ee\	.	.	.	.	.	.	.	.	.	.	.	.	.	.	.	.	.	.	.	.	.	.	.	.	.	.	.	.	.	.
.	.	.	.	.	.	16ff#\	.	.	.	.	.	.	.	.	.	.	.	.	.	.	.	.	.	.	.	.	.	.	.	.	.	.	.	.	.	.
.	.	.	.	.	.	16gg\JJ	.	.	.	.	.	.	.	.	.	.	.	.	.	.	.	.	.	.	.	.	.	.	.	.	.	.	.	.	.	.
.	.	.	.	.	.	8aa\L	.	4D\	-li	-li.	.	.	.	4f#\	-li	-li.	.	.	4dd\	-li	-li.	.	.	.	.	.	.	.	.	.	.	.	.	.	.	.
.	.	.	.	.	.	8aa\J	.	.	.	.	.	.	.	.	.	.	.	.	.	.	.	.	.	.	.	.	.	.	.	.	.	.	.	.	.	.
=49	=49	=49	=49	=49	=49	=49	=49	=49	=49	=49	=49	=49	=49	=49	=49	=49	=49	=49	=49	=49	=49	=49	=49	=49	=49	=49	=49	=49	=49	=49	=49	=49	=49	=49	=49	=49
1A 1D] 1DD	.	.	2a/	2f#\	.	8ee\L	.	2D\	A-	A-	.	.	1ryy	2f#\	A-	A-	.	.	2dd\	A-	A-	.	.	1ryy	1dd	.	1ff#	.	1ff#	.	1aa	.	1aa	.	1ddd	.
.	.	.	.	.	.	8ff#\J	.	.	.	.	.	.	.	.	.	.	.	.	.	.	.	.	.	.	.	.	.	.	.	.	.	.	.	.	.	.
.	.	.	.	.	.	4dd\	.	.	.	.	.	.	.	.	.	.	.	.	.	.	.	.	.	.	.	.	.	.	.	.	.	.	.	.	.	.
.	.	.	4a 4e/	2ryy	.	8ee\L	.	2D\	-men	-men,	.	.	.	2f#\	-men	-men,	.	.	2dd\	-men	-men,	.	.	.	.	.	.	.	.	.	.	.	.	.	.	.
.	.	.	.	.	.	8gg#X\J	.	.	.	.	.	.	.	.	.	.	.	.	.	.	.	.	.	.	.	.	.	.	.	.	.	.	.	.	.	.
.	.	.	4a 4e/	.	.	4aa\	.	.	.	.	.	.	.	.	.	.	.	.	.	.	.	.	.	.	.	.	.	.	.	.	.	.	.	.	.	.
*	*	*	*v	*v	*	*	*	*	*	*	*	*	*	*	*	*	*	*	*	*	*	*	*	*	*	*	*	*	*	*	*	*	*	*	*	*
=50	=50	=50	=50	=50	=50	=50	=50	=50	=50	=50	=50	=50	=50	=50	=50	=50	=50	=50	=50	=50	=50	=50	=50	=50	=50	=50	=50	=50	=50	=50	=50	=50	=50	=50	=50
*	*	*	*	*	*	*	*	*	*	*	*	*	*	*	*	*	*	*	*ij	*ij	*	*	*	*	*	*	*	*	*	*	*	*	*	*	*
1A 1D 1DD	.	.	4a 4e/	.	16gg#X\LL	.	1D	A-	a-	.	.	1ryy	1f#	A-	a-	.	.	2dd\	A-	a-	.	.	1ryy	1dd	.	1ff#	.	1ff#	.	1aa	.	1aa	.	1ddd	.
.	.	.	.	.	16ff#\	.	.	.	.	.	.	.	.	.	.	.	.	.	.	.	.	.	.	.	.	.	.	.	.	.	.	.	.	.	.
.	.	.	.	.	16gg#\	.	.	.	.	.	.	.	.	.	.	.	.	.	.	.	.	.	.	.	.	.	.	.	.	.	.	.	.	.	.
.	.	.	.	.	16ee\JJ	.	.	.	.	.	.	.	.	.	.	.	.	.	.	.	.	.	.	.	.	.	.	.	.	.	.	.	.	.	.
.	.	.	4a 4e/	.	4aa\	.	.	.	.	.	.	.	.	.	.	.	.	.	.	.	.	.	.	.	.	.	.	.	.	.	.	.	.	.	.
.	.	.	2a 2f#/	.	16dd\LL	.	.	.	.	.	.	.	.	.	.	.	.	2dd\	-men	-men,	.	.	.	.	.	.	.	.	.	.	.	.	.	.	.
.	.	.	.	.	16ee\	.	.	.	.	.	.	.	.	.	.	.	.	.	.	.	.	.	.	.	.	.	.	.	.	.	.	.	.	.	.
.	.	.	.	.	16ff#\	.	.	.	.	.	.	.	.	.	.	.	.	.	.	.	.	.	.	.	.	.	.	.	.	.	.	.	.	.	.
.	.	.	.	.	16gg#\JJ	.	.	.	.	.	.	.	.	.	.	.	.	.	.	.	.	.	.	.	.	.	.	.	.	.	.	.	.	.	.
.	.	.	.	.	8aa\L	.	.	.	.	.	.	.	.	.	.	.	.	.	.	.	.	.	.	.	.	.	.	.	.	.	.	.	.	.	.
.	.	.	.	.	8aa\J	.	.	.	.	.	.	.	.	.	.	.	.	.	.	.	.	.	.	.	.	.	.	.	.	.	.	.	.	.	.
!	!	!	!	!	!	!	!	!	!	!	!	!	!	!	!	!	!	!	!	!	!	!	!	!LO:LB:g=original	!	!LO:LB:g=original	!	!	!	!	!	!	!	!	!
=51	=51	=51	=51	=51	=51	=51	=51	=51	=51	=51	=51	=51	=51	=51	=51	=51	=51	=51	=51	=51	=51	=51	=51	=51	=51	=51	=51	=51	=51	=51	=51	=51	=51	=51	=51
1A 1D 1DD	.	.	2a 2f#/	.	8ee\L	.	1D	-men	-men,	.	.	1ryy	1f#	-men	-men,	.	.	2dd\	A-	a-	.	.	1ryy	1dd	.	1ff#	.	1ff#	.	1aa	.	1aa	.	1ddd	.
.	.	.	.	.	8ff#\J	.	.	.	.	.	.	.	.	.	.	.	.	.	.	.	.	.	.	.	.	.	.	.	.	.	.	.	.	.	.
.	.	.	.	.	16dd\LL	.	.	.	.	.	.	.	.	.	.	.	.	.	.	.	.	.	.	.	.	.	.	.	.	.	.	.	.	.	.
.	.	.	.	.	16cc#\	.	.	.	.	.	.	.	.	.	.	.	.	.	.	.	.	.	.	.	.	.	.	.	.	.	.	.	.	.	.
.	.	.	.	.	16b\	.	.	.	.	.	.	.	.	.	.	.	.	.	.	.	.	.	.	.	.	.	.	.	.	.	.	.	.	.	.
.	.	.	.	.	16a\JJ	.	.	.	.	.	.	.	.	.	.	.	.	.	.	.	.	.	.	.	.	.	.	.	.	.	.	.	.	.	.
.	.	.	2a 2f#/	.	8dd\L	.	.	.	.	.	.	.	.	.	.	.	.	2dd\	-men	-men,	.	.	.	.	.	.	.	.	.	.	.	.	.	.	.
*	*	*	*	*	*	*	*	*	*	*	*	*	*	*	*	*	*	*	*Xij	*Xij	*	*	*	*	*	*	*	*	*	*	*	*	*	*	*
.	.	.	.	.	16ee\L	.	.	.	.	.	.	.	.	.	.	.	.	.	.	.	.	.	.	.	.	.	.	.	.	.	.	.	.	.	.
.	.	.	.	.	16ff#\JJ	.	.	.	.	.	.	.	.	.	.	.	.	.	.	.	.	.	.	.	.	.	.	.	.	.	.	.	.	.	.
.	.	.	.	.	4dd\	.	.	.	.	.	.	.	.	.	.	.	.	.	.	.	.	.	.	.	.	.	.	.	.	.	.	.	.	.	.
*	*	*	*	*	*	*	*	*	*	*	*	*	*custos:f	*	*	*	*	*	*	*	*	*	*	*	*	*	*	*	*	*	*	*	*	*	*
!	!	!	!	!	!	!	!	!	!	!	!	!	!LO:LB:g=original	!	!	!	!	!	!	!	!	!	!	!	!	!	!	!	!	!	!	!	!	!	!
=52	=52	=52	=52	=52	=52	=52	=52	=52	=52	=52	=52	=52	=52	=52	=52	=52	=52	=52	=52	=52	=52	=52	=52	=52	=52	=52	=52	=52	=52	=52	=52	=52	=52	=52	=52
!	!	!	!	!	!	!	!LO:SIC:s=(4D\	!	!	!	!	!	!	!	!	!	!	!	!	!	!	!	!	!	!	!	!	!	!	!	!	!	!	!	!
4D 4DD/	.	.	4a 4f#/	.	8dd\L	.	4D\	A-	a-	.	.	1ryy	1f#	A-	a-	.	.	1dd	A-	a-	.	.	1ryy	4dd\	.	4ff#\	.	2ff#\	.	2aa\	.	4ff#\	.	4ddd\	.
.	.	.	.	.	16ee\L	.	.	.	.	.	.	.	.	.	.	.	.	.	.	.	.	.	.	.	.	.	.	.	.	.	.	.	.	.	.
.	.	.	.	.	16ff#\JJ	.	.	.	.	.	.	.	.	.	.	.	.	.	.	.	.	.	.	.	.	.	.	.	.	.	.	.	.	.	.
4D 4DD/	.	.	4a 4f#/	.	8dd\L	.	4F#\	.	.	.	.	.	.	.	.	.	.	.	.	.	.	.	.	8dd\L	.	8ff#\L	.	.	.	.	.	8ff#\L	.	8ddd\L	.
.	.	.	.	.	16ee\L	.	.	.	.	.	.	.	.	.	.	.	.	.	.	.	.	.	.	8dd\J	.	8ff#\J	.	.	.	.	.	8ff#\J	.	8ddd\J	.
.	.	.	.	.	16ff#\JJ	.	.	.	.	.	.	.	.	.	.	.	.	.	.	.	.	.	.	.	.	.	.	.	.	.	.	.	.	.	.
4D 4DD/	.	.	4a 4f#/	.	8dd\L	.	4A\	.	.	.	.	.	.	.	.	.	.	.	.	.	.	.	.	4dd\	.	4ff#\	.	4ff#\	.	4aa\	.	4ff#\	.	4ddd\	.
.	.	.	.	.	8aa\	.	.	.	.	.	.	.	.	.	.	.	.	.	.	.	.	.	.	.	.	.	.	.	.	.	.	.	.	.	.
!	!	!	!	!	!	!	!LO:SIC:s=4F#\)	!	!	!	!	!	!	!	!	!	!	!	!	!	!	!	!	!	!	!	!	!	!	!	!	!	!	!	!
4D 4DD/	.	.	4a 4f#/	.	8dd\	.	4F#\	.	.	.	.	.	.	.	.	.	.	.	.	.	.	.	.	4dd\	.	4ff#\	.	4ff#\	.	4aa\	.	4ff#\	.	4ddd\	.
.	.	.	.	.	8ddd\J	.	.	.	.	.	.	.	.	.	.	.	.	.	.	.	.	.	.	.	.	.	.	.	.	.	.	.	.	.	.
=53	=53	=53	=53	=53	=53	=53	=53	=53	=53	=53	=53	=53	=53	=53	=53	=53	=53	=53	=53	=53	=53	=53	=53	=53	=53	=53	=53	=53	=53	=53	=53	=53	=53	=53	=53
4D 4DD/	.	.	4a 4f#/	.	4dd\	.	4D\	-men	-men.	.	.	1ryy	4f#\	-men	-men.	.	.	4dd\	-men	-men.	.	.	1ryy	4dd\	.	4ff#\	.	4ff#\	.	4aa\	.	4ff#\	.	4ddd\	.
*	*	*	*	*	*	*	*	*	*	*	*	*	*	*	*	*	*	*	*	*	*	*	*	*	*	*	*	*	*	*	*	*	*	*X8va	*
4r	.	.	4r	.	4r	.	4r	.	.	.	.	.	4r	.	.	.	.	4r	.	.	.	.	.	4r	.	4r	.	4r	.	4r	.	4r	.	4r	.
2r	.	.	2r	.	2r	.	2r	.	.	.	.	.	2r	.	.	.	.	2r	.	.	.	.	.	2r	.	2r	.	2r	.	2r	.	2r	.	2r	.
!	!	!	!	!	!LO:TX:b:t=Sanctus Seg:mod=	!	!	!	!	!	!	!	!	!	!	!	!	!	!	!	!	!	!	!	!	!	!	!	!	!	!	!	!	!	!
==	==	==	==	==	==	==	==	==	==	==	==	==	==	==	==	==	==	==	==	==	==	==	==	==	==	==	==	==	==	==	==	==	==	==	==
*-	*-	*-	*-	*-	*-	*-	*-	*-	*-	*-	*-	*-	*-	*-	*-	*-	*-	*-	*-	*-	*-	*-	*-	*-	*-	*-	*-	*-	*-	*-	*-	*-	*-	*-	*-
!!!system-decoration: [(g1)][(g2)][(g3)][(g4)]g5
!!!RDF**kern: | = vertical stroke
!!!RDF**kern: > = above
!!!RDF**kern: < = below
!!!filter-modern: sic -sq | shed -e "s/LO:DY:(a|b|rj)/LO:dy:$1/L" | autostem -r | tie -s | shed -k -e "s/([\(\)\[\]])[><]/$1/g" | shed -e "s/^custos:/Xcustos:/I" | shed -k -e "s/:TUP:/:tup:/L" | shed -e "s/N:vis=/N:VIS=/L" | shed -e "s/TX(.*):t=P:/tx$1:t=P:/LG" | shed -e "s/^(\d+[\/\\]right)/$1yy/I; s/^(\d+[\/\\]left)/$1yy/I" | shed -e "s/-//B" | modori -m
!!!ENC: Berenika Jozajtis
!!!END: 2020-09-28
!!!EED: Katarzyna Serwa
!!!EEV: 2022-02-02
!!!EED: Katarzyna Serwa
!!!EEV: 2022-12-08
